; generated by Slic3r 1.3.0 on 2024-07-28 at 01:13:09

; external perimeters extrusion width = 0.44mm (0.00mm^3/s)
; perimeters extrusion width = 0.45mm (0.00mm^3/s)
; infill extrusion width = 0.45mm (0.00mm^3/s)
; solid infill extrusion width = 0.45mm (0.00mm^3/s)
; top infill extrusion width = 0.45mm (0.00mm^3/s)

M107
M190 S67 ; set bed temperature and wait for it to be reached
M104 S225 ; set temperature
G28 ; home all axes
G1 Z5 F5000 ; lift nozzle

; Filament gcode

M109 S225 ; set temperature and wait for it to be reached
G21 ; set units to millimeters
G90 ; use absolute coordinates
M82 ; use absolute distances for extrusion
G92 E0
G1 Z0.500 F7800.000
G1 E-2.00000 F2400.00000
G92 E0
G1 X22.031 Y61.902 F7800.000
G1 E2.00000 F2400.00000
G1 F1800
G1 X25.000 Y61.375 E2.19602
G1 X195.000 Y61.375 E13.24646
G1 X197.589 Y61.772 E13.41672
G1 X199.939 Y62.929 E13.58697
G1 X201.834 Y64.737 E13.75723
G1 X203.098 Y67.031 E13.92749
G1 X203.625 Y70.000 E14.12351
G1 X203.625 Y150.000 E19.32372
G1 X203.228 Y152.589 E19.49397
G1 X202.071 Y154.939 E19.66423
G1 X200.263 Y156.834 E19.83449
G1 X197.969 Y158.098 E20.00474
G1 X195.000 Y158.625 E20.20076
G1 X25.000 Y158.625 E31.25120
G1 X22.411 Y158.228 E31.42146
G1 X20.061 Y157.071 E31.59172
G1 X18.166 Y155.263 E31.76197
G1 X16.902 Y152.969 E31.93223
G1 X16.375 Y150.000 E32.12825
G1 X16.375 Y70.000 E37.32846
G1 X16.772 Y67.411 E37.49871
G1 X17.929 Y65.061 E37.66897
G1 X19.737 Y63.166 E37.83923
G1 X21.978 Y61.931 E38.00558
G1 X22.317 Y62.132 F7800.000
G1 F1800
G1 X25.000 Y61.687 E38.18237
G1 X195.000 Y61.687 E49.23281
G1 X197.540 Y62.085 E49.39994
G1 X199.837 Y63.240 E49.56706
G1 X201.672 Y65.041 E49.73418
G1 X202.868 Y67.317 E49.90131
G1 X203.313 Y70.000 E50.07810
G1 X203.313 Y150.000 E55.27830
G1 X202.915 Y152.540 E55.44543
G1 X201.760 Y154.837 E55.61255
G1 X199.959 Y156.672 E55.77967
G1 X197.683 Y157.868 E55.94680
G1 X195.000 Y158.313 E56.12359
G1 X25.000 Y158.313 E67.17403
G1 X22.460 Y157.915 E67.34115
G1 X20.163 Y156.760 E67.50827
G1 X18.328 Y154.959 E67.67540
G1 X17.132 Y152.683 E67.84252
G1 X16.687 Y150.000 E68.01931
G1 X16.687 Y70.000 E73.21952
G1 X17.085 Y67.460 E73.38664
G1 X18.240 Y65.163 E73.55376
G1 X20.041 Y63.328 E73.72089
G1 X22.264 Y62.160 E73.88411
G1 E71.88411 F2400.00000
G92 E0
G1 X154.780 Y135.220 F7800.000
G1 E2.00000 F2400.00000
G1 F1800
G1 X154.780 Y84.780 E5.48844
G1 X185.220 Y84.780 E7.59367
G1 X185.220 Y135.220 E11.08210
G1 X154.840 Y135.220 E13.18319
G1 E11.18319 F2400.00000
G92 E0
G1 X155.220 Y144.780 F7800.000
G1 E2.00000 F2400.00000
G1 F1800
G1 X147.780 Y144.780 E2.51455
G1 X147.780 Y149.780 E2.86035
G1 X140.220 Y149.780 E3.38320
G1 X140.220 Y119.780 E5.45801
G1 X84.780 Y119.780 E9.29224
G1 X84.780 Y137.780 E10.53712
G1 X79.780 Y137.780 E10.88292
G1 X79.780 Y145.220 E11.39747
G1 X84.780 Y145.220 E11.74327
G1 X84.780 Y149.780 E12.05865
G1 X25.220 Y149.780 E16.17782
G1 X25.220 Y145.220 E16.49319
G1 X30.220 Y145.220 E16.83899
G1 X30.220 Y137.780 E17.35354
G1 X25.220 Y137.780 E17.69934
G1 X25.220 Y132.220 E18.08387
G1 X65.220 Y132.220 E20.85028
G1 X65.220 Y87.780 E23.92375
G1 X25.220 Y87.780 E26.69016
G1 X25.220 Y82.220 E27.07469
G1 X30.220 Y82.220 E27.42049
G1 X30.220 Y74.780 E27.93504
G1 X25.220 Y74.780 E28.28084
G1 X25.220 Y70.220 E28.59621
G1 X84.780 Y70.220 E32.71538
G1 X84.780 Y74.780 E33.03075
G1 X79.780 Y74.780 E33.37656
G1 X79.780 Y82.220 E33.89111
G1 X84.780 Y82.220 E34.23691
G1 X84.780 Y100.220 E35.48179
G1 X140.220 Y100.220 E39.31602
G1 X140.220 Y70.220 E41.39083
G1 X147.780 Y70.220 E41.91368
G1 X147.780 Y75.220 E42.25948
G1 X155.220 Y75.220 E42.77403
G1 X155.220 Y70.220 E43.11983
G1 X180.780 Y70.220 E44.88756
G1 X180.780 Y75.220 E45.23336
G1 X188.220 Y75.220 E45.74791
G1 X188.220 Y70.220 E46.09371
G1 X194.780 Y70.220 E46.54741
G1 X194.780 Y149.780 E52.04978
G1 X188.220 Y149.780 E52.50347
G1 X188.220 Y144.780 E52.84927
G1 X180.780 Y144.780 E53.36382
G1 X180.780 Y149.780 E53.70963
G1 X155.220 Y149.780 E55.47736
G1 X155.220 Y144.840 E55.81901
G1 E53.81901 F2400.00000
G92 E0
G1 X146.984 Y149.584 F7800.000
G1 E2.00000 F2400.00000
G1 F1800
G1 X147.584 Y148.984 E2.05521
G1 X147.584 Y148.541 E2.08401
G1 X146.541 Y149.584 E2.17994
G1 X146.099 Y149.584 E2.20873
G1 X147.584 Y148.099 E2.34539
G1 X147.584 Y147.656 E2.37418
G1 X145.656 Y149.584 E2.55155
G1 X145.213 Y149.584 E2.58035
G1 X147.584 Y147.213 E2.79844
G1 X147.584 Y146.771 E2.82723
G1 X144.771 Y149.584 E3.08604
G1 X144.328 Y149.584 E3.11484
G1 X147.584 Y146.328 E3.41437
G1 X147.584 Y145.886 E3.44316
G1 X143.886 Y149.584 E3.78341
G1 X143.443 Y149.584 E3.81220
G1 X147.584 Y145.443 E4.19317
G1 X147.584 Y145.001 E4.22196
G1 X143.001 Y149.584 E4.64365
G1 X142.558 Y149.584 E4.67245
G1 E2.67245 F2400.00000
G92 E0
G1 X121.218 Y119.584 F7800.000
G1 E2.00000 F2400.00000
G1 F1800
G1 X140.386 Y100.416 E3.76350
G1 X139.943 Y100.416 E3.79230
G1 X120.775 Y119.584 E5.55580
G1 X120.333 Y119.584 E5.58459
G1 X139.501 Y100.416 E7.34809
G1 X139.058 Y100.416 E7.37689
G1 X119.890 Y119.584 E9.14039
G1 X119.448 Y119.584 E9.16918
G1 X138.615 Y100.416 E10.93269
G1 X138.173 Y100.416 E10.96148
G1 X119.005 Y119.584 E12.72498
G1 X118.562 Y119.584 E12.75378
G1 X137.730 Y100.416 E14.51728
G1 X137.288 Y100.416 E14.54607
G1 X118.120 Y119.584 E16.30957
G1 X117.677 Y119.584 E16.33837
G1 X136.845 Y100.416 E18.10187
G1 X136.402 Y100.416 E18.13066
G1 X117.235 Y119.584 E19.89417
G1 X116.792 Y119.584 E19.92296
G1 X135.960 Y100.416 E21.68646
G1 X135.517 Y100.416 E21.71525
G1 X116.349 Y119.584 E23.47876
G1 X115.907 Y119.584 E23.50755
G1 X135.075 Y100.416 E25.27105
G1 X134.632 Y100.416 E25.29985
G1 X115.464 Y119.584 E27.06335
G1 X115.022 Y119.584 E27.09214
G1 X134.190 Y100.416 E28.85564
G1 X133.747 Y100.416 E28.88444
G1 X114.579 Y119.584 E30.64794
G1 X114.136 Y119.584 E30.67673
G1 X133.304 Y100.416 E32.44024
G1 X132.862 Y100.416 E32.46903
G1 X113.694 Y119.584 E34.23253
G1 X113.251 Y119.584 E34.26133
G1 X132.419 Y100.416 E36.02483
G1 X131.977 Y100.416 E36.05362
G1 X112.809 Y119.584 E37.81712
G1 X112.366 Y119.584 E37.84592
G1 X131.534 Y100.416 E39.60942
G1 X131.091 Y100.416 E39.63821
G1 X111.924 Y119.584 E41.40172
G1 X111.481 Y119.584 E41.43051
G1 X130.649 Y100.416 E43.19401
G1 X130.206 Y100.416 E43.22280
G1 X111.038 Y119.584 E44.98631
G1 X110.596 Y119.584 E45.01510
G1 X129.764 Y100.416 E46.77860
G1 X129.321 Y100.416 E46.80740
G1 X110.153 Y119.584 E48.57090
G1 X109.711 Y119.584 E48.59969
G1 X128.878 Y100.416 E50.36319
G1 X128.436 Y100.416 E50.39199
G1 X109.268 Y119.584 E52.15549
G1 X108.825 Y119.584 E52.18428
G1 X127.993 Y100.416 E53.94779
G1 X127.551 Y100.416 E53.97658
G1 X108.383 Y119.584 E55.74008
G1 X107.940 Y119.584 E55.76887
G1 X127.108 Y100.416 E57.53238
G1 X126.666 Y100.416 E57.56117
G1 X107.498 Y119.584 E59.32467
G1 X107.055 Y119.584 E59.35347
G1 X126.223 Y100.416 E61.11697
G1 X125.780 Y100.416 E61.14576
G1 X106.613 Y119.584 E62.90926
G1 X106.170 Y119.584 E62.93806
G1 X125.338 Y100.416 E64.70156
G1 X124.895 Y100.416 E64.73035
G1 X105.727 Y119.584 E66.49386
G1 X105.285 Y119.584 E66.52265
G1 X124.453 Y100.416 E68.28615
G1 X124.010 Y100.416 E68.31495
G1 X104.842 Y119.584 E70.07845
G1 X104.400 Y119.584 E70.10724
G1 X123.567 Y100.416 E71.87074
G1 X123.125 Y100.416 E71.89954
G1 X103.957 Y119.584 E73.66304
G1 X103.514 Y119.584 E73.69183
G1 X122.682 Y100.416 E75.45534
G1 X122.240 Y100.416 E75.48413
G1 X103.072 Y119.584 E77.24763
G1 X102.629 Y119.584 E77.27642
G1 X121.797 Y100.416 E79.03993
G1 X121.355 Y100.416 E79.06872
G1 X102.187 Y119.584 E80.83222
G1 X101.744 Y119.584 E80.86102
G1 X120.912 Y100.416 E82.62452
G1 X120.469 Y100.416 E82.65331
G1 X101.301 Y119.584 E84.41682
G1 X100.859 Y119.584 E84.44561
G1 X120.027 Y100.416 E86.20911
G1 X119.584 Y100.416 E86.23790
G1 X100.416 Y119.584 E88.00141
G1 X99.974 Y119.584 E88.03020
G1 X119.142 Y100.416 E89.79370
G1 X118.699 Y100.416 E89.82250
G1 X99.531 Y119.584 E91.58600
G1 X99.089 Y119.584 E91.61479
G1 X118.256 Y100.416 E93.37829
G1 X117.814 Y100.416 E93.40709
G1 X98.646 Y119.584 E95.17059
G1 X98.203 Y119.584 E95.19938
G1 X117.371 Y100.416 E96.96289
G1 X116.929 Y100.416 E96.99168
G1 X97.761 Y119.584 E98.75518
G1 X97.318 Y119.584 E98.78397
G1 X116.486 Y100.416 E100.54748
G1 X116.043 Y100.416 E100.57627
G1 X96.876 Y119.584 E102.33977
G1 X96.433 Y119.584 E102.36857
G1 X115.601 Y100.416 E104.13207
G1 X115.158 Y100.416 E104.16086
G1 X95.990 Y119.584 E105.92437
G1 X95.548 Y119.584 E105.95316
G1 X114.716 Y100.416 E107.71666
G1 X114.273 Y100.416 E107.74545
G1 X95.105 Y119.584 E109.50896
G1 X94.663 Y119.584 E109.53775
G1 X113.831 Y100.416 E111.30125
G1 X113.388 Y100.416 E111.33005
G1 X94.220 Y119.584 E113.09355
G1 X93.778 Y119.584 E113.12234
G1 X112.945 Y100.416 E114.88585
G1 X112.503 Y100.416 E114.91464
G1 X93.335 Y119.584 E116.67814
G1 X92.892 Y119.584 E116.70693
G1 X112.060 Y100.416 E118.47044
G1 X111.618 Y100.416 E118.49923
G1 X92.450 Y119.584 E120.26273
G1 X92.007 Y119.584 E120.29153
G1 X111.175 Y100.416 E122.05503
G1 X110.732 Y100.416 E122.08382
G1 X91.565 Y119.584 E123.84732
G1 X91.122 Y119.584 E123.87612
G1 X110.290 Y100.416 E125.63962
G1 X109.847 Y100.416 E125.66841
G1 X90.679 Y119.584 E127.43192
G1 X90.237 Y119.584 E127.46071
G1 X109.405 Y100.416 E129.22421
G1 X108.962 Y100.416 E129.25300
G1 X89.794 Y119.584 E131.01651
G1 X89.352 Y119.584 E131.04530
G1 X108.520 Y100.416 E132.80880
G1 X108.077 Y100.416 E132.83760
G1 X88.909 Y119.584 E134.60110
G1 X88.466 Y119.584 E134.62989
G1 X107.634 Y100.416 E136.39339
G1 X107.192 Y100.416 E136.42219
G1 X88.024 Y119.584 E138.18569
G1 X87.581 Y119.584 E138.21448
G1 X106.749 Y100.416 E139.97799
G1 X106.307 Y100.416 E140.00678
G1 X87.139 Y119.584 E141.77028
G1 X86.696 Y119.584 E141.79908
G1 X105.864 Y100.416 E143.56258
G1 X105.421 Y100.416 E143.59137
G1 X86.254 Y119.584 E145.35487
G1 X85.811 Y119.584 E145.38367
G1 X104.979 Y100.416 E147.14717
G1 X104.536 Y100.416 E147.17596
G1 X85.368 Y119.584 E148.93947
G1 X84.926 Y119.584 E148.96826
G1 X104.094 Y100.416 E150.73176
G1 X103.651 Y100.416 E150.76055
G1 X84.483 Y119.584 E152.52406
G1 X84.341 Y119.584 E152.53333
G1 X84.341 Y119.726 E152.54260
G1 X54.483 Y149.584 E155.28958
G1 X54.041 Y149.584 E155.31837
G1 X103.208 Y100.416 E159.84197
G1 X102.766 Y100.416 E159.87076
G1 X53.598 Y149.584 E164.39436
G1 X53.155 Y149.584 E164.42315
G1 X102.323 Y100.416 E168.94674
G1 X101.881 Y100.416 E168.97554
G1 X52.713 Y149.584 E173.49913
G1 X52.270 Y149.584 E173.52793
G1 X101.438 Y100.416 E178.05152
G1 X100.996 Y100.416 E178.08031
G1 X51.828 Y149.584 E182.60391
G1 X51.385 Y149.584 E182.63270
G1 X100.553 Y100.416 E187.15630
G1 X100.110 Y100.416 E187.18509
G1 X50.942 Y149.584 E191.70869
G1 X50.500 Y149.584 E191.73748
G1 X99.668 Y100.416 E196.26107
G1 X99.225 Y100.416 E196.28987
G1 X50.057 Y149.584 E200.81346
G1 X49.615 Y149.584 E200.84225
G1 X98.783 Y100.416 E205.36585
G1 X98.340 Y100.416 E205.39464
G1 X49.172 Y149.584 E209.91824
G1 X48.730 Y149.584 E209.94703
G1 X97.897 Y100.416 E214.47063
G1 X97.455 Y100.416 E214.49942
G1 X65.416 Y132.455 E217.44709
G1 X65.416 Y132.012 E217.47588
G1 X97.012 Y100.416 E220.38282
G1 X96.570 Y100.416 E220.41162
G1 X65.416 Y131.570 E223.27784
G1 X65.416 Y131.127 E223.30664
G1 X96.127 Y100.416 E226.13214
G1 X95.684 Y100.416 E226.16094
G1 X65.416 Y130.684 E228.94572
G1 X65.416 Y130.242 E228.97452
G1 X95.242 Y100.416 E231.71859
G1 X94.799 Y100.416 E231.74738
G1 X65.416 Y129.799 E234.45073
G1 X65.416 Y129.357 E234.47952
G1 X94.357 Y100.416 E237.14215
G1 X93.914 Y100.416 E237.17094
G1 X65.416 Y128.914 E239.79286
G1 X65.416 Y128.472 E239.82165
G1 X93.472 Y100.416 E242.40284
G1 X93.029 Y100.416 E242.43163
G1 X65.416 Y128.029 E244.97210
G1 X65.416 Y127.586 E245.00090
G1 X92.586 Y100.416 E247.50065
G1 X92.144 Y100.416 E247.52944
G1 X65.416 Y127.144 E249.98848
G1 X65.416 Y126.701 E250.01727
G1 X91.701 Y100.416 E252.43558
G1 X91.259 Y100.416 E252.46438
G1 X65.416 Y126.259 E254.84197
G1 X65.416 Y125.816 E254.87076
G1 X90.816 Y100.416 E257.20764
G1 X90.373 Y100.416 E257.23643
G1 X65.416 Y125.373 E259.53259
G1 X65.416 Y124.931 E259.56138
G1 X89.931 Y100.416 E261.81682
G1 X89.488 Y100.416 E261.84561
G1 X65.416 Y124.488 E264.06033
G1 X65.416 Y124.046 E264.08912
G1 X89.046 Y100.416 E266.26312
G1 X88.603 Y100.416 E266.29191
G1 X65.416 Y123.603 E268.42519
G1 X65.416 Y123.161 E268.45398
G1 X88.161 Y100.416 E270.54654
G1 X87.718 Y100.416 E270.57534
G1 X65.416 Y122.718 E272.62718
G1 X65.416 Y122.275 E272.65597
G1 X87.275 Y100.416 E274.66709
G1 X86.833 Y100.416 E274.69588
G1 X65.416 Y121.833 E276.66629
G1 X65.416 Y121.390 E276.69508
G1 X86.390 Y100.416 E278.62476
G1 X85.948 Y100.416 E278.65355
G1 X65.416 Y120.948 E280.54252
G1 X65.416 Y120.505 E280.57131
G1 X85.505 Y100.416 E282.41955
G1 X85.062 Y100.416 E282.44835
G1 X65.416 Y120.062 E284.25587
G1 X65.416 Y119.620 E284.28466
G1 X84.620 Y100.416 E286.05147
G1 X84.584 Y100.416 E286.05380
G1 X84.584 Y100.009 E286.08026
G1 X65.416 Y119.177 E287.84376
G1 X65.416 Y118.735 E287.87256
G1 X84.584 Y99.567 E289.63606
G1 X84.584 Y99.124 E289.66485
G1 X65.416 Y118.292 E291.42835
G1 X65.416 Y117.849 E291.45715
G1 X84.584 Y98.682 E293.22065
G1 X84.584 Y98.239 E293.24944
G1 X65.416 Y117.407 E295.01294
G1 X65.416 Y116.964 E295.04174
G1 X84.584 Y97.796 E296.80524
G1 X84.584 Y97.354 E296.83403
G1 X65.416 Y116.522 E298.59754
G1 X65.416 Y116.079 E298.62633
G1 X84.584 Y96.911 E300.38983
G1 X84.584 Y96.469 E300.41862
G1 X65.416 Y115.637 E302.18213
G1 X65.416 Y115.194 E302.21092
G1 X84.584 Y96.026 E303.97442
G1 X84.584 Y95.584 E304.00321
G1 X65.416 Y114.751 E305.76672
G1 X65.416 Y114.309 E305.79551
G1 X84.584 Y95.141 E307.55901
G1 X84.584 Y94.698 E307.58780
G1 X65.416 Y113.866 E309.35131
G1 X65.416 Y113.424 E309.38010
G1 X84.584 Y94.256 E311.14360
G1 X84.584 Y93.813 E311.17239
G1 X65.416 Y112.981 E312.93590
G1 X65.416 Y112.538 E312.96469
G1 X84.584 Y93.371 E314.72819
G1 X84.584 Y92.928 E314.75699
G1 X65.416 Y112.096 E316.52049
G1 X65.416 Y111.653 E316.54928
G1 X84.584 Y92.485 E318.31278
G1 X84.584 Y92.043 E318.34158
G1 X65.416 Y111.211 E320.10508
G1 X65.416 Y110.768 E320.13387
G1 X84.584 Y91.600 E321.89737
G1 X84.584 Y91.158 E321.92617
G1 X65.416 Y110.326 E323.68967
G1 X65.416 Y109.883 E323.71846
G1 X84.584 Y90.715 E325.48196
G1 X84.584 Y90.272 E325.51076
G1 X65.416 Y109.440 E327.27426
G1 X65.416 Y108.998 E327.30305
G1 X84.584 Y89.830 E329.06656
G1 X84.584 Y89.387 E329.09535
G1 X65.416 Y108.555 E330.85885
G1 X65.416 Y108.113 E330.88764
G1 X84.584 Y88.945 E332.65115
G1 X84.584 Y88.502 E332.67994
G1 X65.416 Y107.670 E334.44344
G1 X65.416 Y107.227 E334.47223
G1 X84.584 Y88.060 E336.23574
G1 X84.584 Y87.617 E336.26453
G1 X65.416 Y106.785 E338.02803
G1 X65.416 Y106.342 E338.05682
G1 X84.584 Y87.174 E339.82033
G1 X84.584 Y86.732 E339.84912
G1 X65.416 Y105.900 E341.61262
G1 X65.416 Y105.457 E341.64141
G1 X84.584 Y86.289 E343.40492
G1 X84.584 Y85.847 E343.43371
G1 X65.416 Y105.014 E345.19721
G1 X65.416 Y104.572 E345.22601
G1 X84.584 Y85.404 E346.98951
G1 X84.584 Y84.961 E347.01830
G1 X65.416 Y104.129 E348.78180
G1 X65.416 Y103.687 E348.81060
G1 X84.584 Y84.519 E350.57410
G1 X84.584 Y84.076 E350.60289
G1 X65.416 Y103.244 E352.36639
G1 X65.416 Y102.802 E352.39519
G1 X84.584 Y83.634 E354.15869
G1 X84.584 Y83.191 E354.18748
G1 X65.416 Y102.359 E355.95098
G1 X65.416 Y101.916 E355.97978
G1 X84.584 Y82.749 E357.74328
G1 X84.584 Y82.416 E357.76491
G1 X84.474 Y82.416 E357.77207
G1 X65.416 Y101.474 E359.52544
G1 X65.416 Y101.031 E359.55423
G1 X84.031 Y82.416 E361.26688
G1 X83.589 Y82.416 E361.29567
G1 X65.416 Y100.589 E362.96760
G1 X65.416 Y100.146 E362.99640
G1 X83.146 Y82.416 E364.62761
G1 X82.703 Y82.416 E364.65640
G1 X65.416 Y99.703 E366.24689
G1 X65.416 Y99.261 E366.27568
G1 X82.261 Y82.416 E367.82546
G1 X81.818 Y82.416 E367.85425
G1 X65.416 Y98.818 E369.36330
G1 X65.416 Y98.376 E369.39209
G1 X81.376 Y82.416 E370.86043
G1 X80.933 Y82.416 E370.88922
G1 X65.416 Y97.933 E372.31683
G1 X65.416 Y97.490 E372.34563
G1 X80.491 Y82.416 E373.73252
G1 X80.048 Y82.416 E373.76131
G1 X65.416 Y97.048 E375.10749
G1 X65.416 Y96.605 E375.13628
G1 X79.605 Y82.416 E376.44174
G1 X79.584 Y82.416 E376.44313
