; generated by Slic3r 1.3.0 on 2024-07-31 at 17:53:22

; external perimeters extrusion width = 0.44mm (0.00mm^3/s)
; perimeters extrusion width = 0.45mm (0.00mm^3/s)
; infill extrusion width = 0.45mm (0.00mm^3/s)
; solid infill extrusion width = 0.45mm (0.00mm^3/s)
; top infill extrusion width = 0.45mm (0.00mm^3/s)
; support material extrusion width = 0.44mm (0.00mm^3/s)

M107
M190 S67 ; set bed temperature and wait for it to be reached
M104 S225 ; set temperature
G28 ; home all axes
G1 Z5 F5000 ; lift nozzle

; Filament gcode

M109 S225 ; set temperature and wait for it to be reached
G21 ; set units to millimeters
G90 ; use absolute coordinates
M82 ; use absolute distances for extrusion
G92 E0
G1 Z0.500 F7800.000
G1 E-2.00000 F2400.00000
G92 E0
G1 X82.737 Y85.123 F7800.000
G1 E2.00000 F2400.00000
G1 F1800
G1 X85.031 Y83.858 E2.17026
G1 X87.598 Y83.341 E2.34051
G1 X89.452 Y83.454 E2.46120
G1 X131.677 Y90.663 E5.24569
G1 X134.162 Y91.491 E5.41595
G1 X136.818 Y93.604 E5.63653
G1 X138.593 Y95.707 E5.81545
G1 X139.958 Y97.943 E5.98570
G1 X140.625 Y101.269 E6.20624
G1 X140.625 Y118.731 E7.34131
G1 X140.228 Y121.320 E7.51157
G1 X138.592 Y124.293 E7.73214
G1 X136.818 Y126.396 E7.91102
G1 X134.845 Y128.119 E8.08127
G1 X131.677 Y129.337 E8.30186
G1 X89.452 Y136.546 E11.08634
G1 X86.833 Y136.589 E11.25660
G1 X84.322 Y135.845 E11.42686
G1 X82.150 Y134.381 E11.59711
G1 X80.517 Y132.333 E11.76737
G1 X79.574 Y129.889 E11.93762
G1 X79.375 Y128.043 E12.05832
G1 X79.375 Y91.957 E14.40405
G1 X79.772 Y89.368 E14.57431
G1 X80.929 Y87.018 E14.74457
G1 X82.696 Y85.166 E14.91092
G1 X83.041 Y85.285 F7800.000
G1 F1800
G1 X85.317 Y84.089 E15.07805
G1 X87.849 Y83.645 E15.24517
G1 X89.399 Y83.762 E15.34618
G1 X131.624 Y90.972 E18.13067
G1 X134.061 Y91.791 E18.29779
G1 X136.579 Y93.805 E18.50736
G1 X138.354 Y95.909 E18.68628
G1 X139.688 Y98.107 E18.85340
G1 X140.313 Y101.269 E19.06292
G1 X140.313 Y118.731 E20.19800
G1 X139.915 Y121.271 E20.36512
G1 X138.353 Y124.091 E20.57468
G1 X136.579 Y126.195 E20.75356
G1 X134.637 Y127.880 E20.92068
G1 X131.624 Y129.028 E21.13026
G1 X89.399 Y136.238 E23.91474
G1 X86.828 Y136.273 E24.08186
G1 X84.370 Y135.521 E24.24899
G1 X82.258 Y134.054 E24.41611
G1 X80.696 Y132.012 E24.58323
G1 X79.833 Y129.591 E24.75036
G1 X79.687 Y128.043 E24.85137
G1 X79.687 Y91.957 E27.19711
G1 X80.085 Y89.417 E27.36423
G1 X81.240 Y87.119 E27.53135
G1 X82.999 Y85.328 E27.69458
G1 E25.69458 F2400.00000
G92 E0
G1 X88.220 Y127.783 F7800.000
G1 E2.00000 F2400.00000
G1 F1800
G1 X88.220 Y92.217 E4.45970
G1 X130.109 Y99.369 E7.39868
G1 X131.780 Y101.349 E7.57787
G1 X131.780 Y118.651 E8.77442
G1 X130.109 Y120.631 E8.95362
G1 X88.279 Y127.773 E11.88845
G1 E9.88845 F2400.00000
G92 E0
G1 X88.660 Y92.472 F7800.000
G1 E2.00000 F2400.00000
G1 F1800
G1 X88.416 Y92.716 E2.02244
G1 X88.416 Y93.159 E2.05132
G1 X89.038 Y92.537 E2.10864
G1 X89.417 Y92.602 E2.13366
G1 X88.416 Y93.602 E2.22587
G1 X88.416 Y94.046 E2.25475
G1 X89.795 Y92.666 E2.38184
G1 X90.174 Y92.731 E2.40686
G1 X88.416 Y94.489 E2.56884
G1 X88.416 Y94.932 E2.59772
G1 X90.553 Y92.795 E2.79458
G1 X90.931 Y92.860 E2.81961
G1 X88.416 Y95.375 E3.05135
G1 X88.416 Y95.819 E3.08023
G1 X91.310 Y92.925 E3.34686
G1 X91.688 Y92.989 E3.37189
G1 X88.416 Y96.262 E3.67340
G1 X88.416 Y96.705 E3.70228
G1 X92.067 Y93.054 E4.03868
G1 X92.446 Y93.119 E4.06371
G1 X88.416 Y97.148 E4.43499
G1 X88.416 Y97.592 E4.46387
G1 X92.824 Y93.183 E4.87005
G1 X93.203 Y93.248 E4.89507
G1 X88.416 Y98.035 E5.33613
G1 X88.416 Y98.478 E5.36500
G1 X93.581 Y93.313 E5.84095
G1 X93.960 Y93.377 E5.86597
G1 X88.416 Y98.921 E6.37680
G1 X88.416 Y99.365 E6.40568
G1 X94.339 Y93.442 E6.95139
G1 X94.717 Y93.507 E6.97641
G1 X88.416 Y99.808 E7.55701
G1 X88.416 Y100.251 E7.58589
G1 X95.096 Y93.571 E8.20137
G1 X95.474 Y93.636 E8.22639
G1 X88.416 Y100.694 E8.87676
G1 X88.416 Y101.137 E8.90564
G1 X95.853 Y93.700 E9.59089
G1 X96.232 Y93.765 E9.61591
G1 X88.416 Y101.581 E10.33605
G1 X88.416 Y102.024 E10.36493
G1 X96.610 Y93.830 E11.11995
G1 X96.989 Y93.894 E11.14497
G1 X88.416 Y102.467 E11.93488
G1 X88.416 Y102.910 E11.96376
G1 X97.368 Y93.959 E12.78855
G1 X97.746 Y94.024 E12.81358
G1 X88.416 Y103.354 E13.67325
G1 X88.416 Y103.797 E13.70213
G1 X98.125 Y94.088 E14.59669
G1 X98.503 Y94.153 E14.62172
G1 X88.416 Y104.240 E15.55116
G1 X88.416 Y104.683 E15.58004
G1 X98.882 Y94.218 E16.54437
G1 X99.261 Y94.282 E16.56940
G1 X88.416 Y105.127 E17.56861
G1 X88.416 Y105.570 E17.59749
G1 X99.639 Y94.347 E18.63159
G1 X100.018 Y94.411 E18.65662
G1 X88.416 Y106.013 E19.72560
G1 X88.416 Y106.456 E19.75448
G1 X100.396 Y94.476 E20.85835
G1 X100.775 Y94.541 E20.88338
G1 X88.416 Y106.900 E22.02213
G1 X88.416 Y107.343 E22.05101
G1 X101.154 Y94.605 E23.22465
G1 X101.532 Y94.670 E23.24968
G1 X88.416 Y107.786 E24.45820
G1 X88.416 Y108.229 E24.48708
G1 X101.911 Y94.735 E25.73049
G1 X102.289 Y94.799 E25.75552
G1 X88.416 Y108.673 E27.03381
G1 X88.416 Y109.116 E27.06269
G1 X102.668 Y94.864 E28.37587
G1 X103.047 Y94.929 E28.40090
G1 X88.416 Y109.559 E29.74896
G1 X88.416 Y110.002 E29.77784
G1 X103.425 Y94.993 E31.16079
G1 X103.804 Y95.058 E31.18582
G1 X88.416 Y110.446 E32.60365
G1 X88.416 Y110.889 E32.63253
G1 X104.182 Y95.123 E34.08525
G1 X104.561 Y95.187 E34.11028
G1 X88.416 Y111.332 E35.59788
G1 X88.416 Y111.775 E35.62676
G1 X104.940 Y95.252 E37.14925
G1 X105.318 Y95.316 E37.17428
G1 X88.416 Y112.219 E38.73165
G1 X88.416 Y112.662 E38.76053
G1 X105.697 Y95.381 E40.35279
G1 X106.075 Y95.446 E40.37782
G1 X88.416 Y113.105 E42.00496
G1 X88.416 Y113.548 E42.03384
G1 X106.454 Y95.510 E43.69587
G1 X106.833 Y95.575 E43.72090
G1 X88.416 Y113.992 E45.41781
G1 X88.416 Y114.435 E45.44669
G1 X107.211 Y95.640 E47.17849
G1 X107.590 Y95.704 E47.20352
G1 X88.416 Y114.878 E48.97020
G1 X88.416 Y115.321 E48.99908
G1 X107.969 Y95.769 E50.80065
G1 X108.347 Y95.834 E50.82568
G1 X88.416 Y115.765 E52.66213
G1 X88.416 Y116.208 E52.69101
G1 X108.726 Y95.898 E54.56235
G1 X109.104 Y95.963 E54.58738
G1 X88.416 Y116.651 E56.49360
G1 X88.416 Y117.094 E56.52248
G1 X109.483 Y96.027 E58.46359
G1 X109.862 Y96.092 E58.48862
G1 X88.416 Y117.538 E60.46461
G1 X88.416 Y117.981 E60.49349
G1 X110.240 Y96.157 E62.50437
G1 X110.619 Y96.221 E62.52940
G1 X88.416 Y118.424 E64.57516
G1 X88.416 Y118.867 E64.60404
G1 X110.997 Y96.286 E66.68469
G1 X111.376 Y96.351 E66.70971
G1 X88.416 Y119.311 E68.82525
G1 X88.416 Y119.754 E68.85413
G1 X111.755 Y96.415 E71.00455
G1 X112.133 Y96.480 E71.02957
G1 X88.416 Y120.197 E73.21488
G1 X88.416 Y120.640 E73.24376
G1 X112.512 Y96.545 E75.46395
G1 X112.890 Y96.609 E75.48897
G1 X88.416 Y121.084 E77.74405
G1 X88.416 Y121.527 E77.77293
G1 X113.269 Y96.674 E80.06289
G1 X113.648 Y96.739 E80.08791
G1 X88.416 Y121.970 E82.41276
G1 X88.416 Y122.413 E82.44164
G1 X114.026 Y96.803 E84.80137
G1 X114.405 Y96.868 E84.82639
G1 X88.416 Y122.857 E87.22101
G1 X88.416 Y123.300 E87.24988
G1 X114.783 Y96.932 E89.67938
G1 X115.162 Y96.997 E89.70441
G1 X88.416 Y123.743 E92.16879
G1 X88.416 Y124.186 E92.19767
G1 X115.541 Y97.062 E94.69694
G1 X115.919 Y97.126 E94.72197
G1 X88.416 Y124.630 E97.25612
G1 X88.416 Y125.073 E97.28500
G1 X116.298 Y97.191 E99.85404
G1 X116.676 Y97.256 E99.87907
G1 X88.416 Y125.516 E102.48299
G1 X88.416 Y125.959 E102.51187
G1 X117.055 Y97.320 E105.15068
G1 X117.434 Y97.385 E105.17570
G1 X88.416 Y126.403 E107.84940
G1 X88.416 Y126.846 E107.87828
G1 X117.812 Y97.450 E110.58686
G1 X118.191 Y97.514 E110.61188
G1 X88.416 Y127.289 E113.35535
G1 X88.416 Y127.528 E113.37090
G1 X88.663 Y127.486 E113.38720
G1 X118.570 Y97.579 E116.14282
G1 X118.948 Y97.644 E116.16785
G1 X89.197 Y127.394 E118.90911
G1 X89.732 Y127.303 E118.94443
G1 X119.327 Y97.708 E121.67133
G1 X119.705 Y97.773 E121.69635
G1 X90.266 Y127.212 E124.40888
G1 X90.801 Y127.121 E124.44421
G1 X120.084 Y97.837 E127.14237
G1 X120.463 Y97.902 E127.16740
G1 X91.335 Y127.029 E129.85120
G1 X91.870 Y126.938 E129.88653
G1 X120.841 Y97.967 E132.55596
G1 X121.220 Y98.031 E132.58099
G1 X92.404 Y126.847 E135.23606
G1 X92.939 Y126.756 E135.27139
G1 X121.598 Y98.096 E137.91209
G1 X121.977 Y98.161 E137.93712
G1 X93.473 Y126.664 E140.56346
G1 X94.008 Y126.573 E140.59879
G1 X122.356 Y98.225 E143.21077
G1 X122.734 Y98.290 E143.23579
G1 X94.542 Y126.482 E145.83340
G1 X95.077 Y126.391 E145.86873
G1 X123.113 Y98.355 E148.45198
G1 X123.491 Y98.419 E148.47701
G1 X95.611 Y126.299 E151.04589
G1 X96.146 Y126.208 E151.08122
G1 X123.870 Y98.484 E153.63574
G1 X124.249 Y98.548 E153.66077
G1 X96.680 Y126.117 E156.20092
G1 X97.215 Y126.026 E156.23625
G1 X124.627 Y98.613 E158.76204
G1 X125.006 Y98.678 E158.78707
G1 X97.749 Y125.934 E161.29849
G1 X98.284 Y125.843 E161.33382
G1 X125.384 Y98.742 E163.83089
G1 X125.763 Y98.807 E163.85591
G1 X98.818 Y125.752 E166.33861
G1 X99.353 Y125.661 E166.37394
G1 X126.142 Y98.872 E168.84227
G1 X126.520 Y98.936 E168.86730
G1 X99.887 Y125.569 E171.32127
G1 X100.422 Y125.478 E171.35660
G1 X126.899 Y99.001 E173.79620
G1 X127.277 Y99.066 E173.82123
G1 X100.956 Y125.387 E176.24647
G1 X101.491 Y125.295 E176.28180
G1 X127.656 Y99.130 E178.69267
G1 X128.035 Y99.195 E178.71770
G1 X102.025 Y125.204 E181.11421
G1 X102.560 Y125.113 E181.14954
G1 X128.413 Y99.260 E183.53169
G1 X128.792 Y99.324 E183.55671
G1 X103.094 Y125.022 E185.92450
G1 X103.629 Y124.930 E185.95982
G1 X129.171 Y99.389 E188.31324
G1 X129.549 Y99.453 E188.33827
G1 X104.163 Y124.839 E190.67732
G1 X104.698 Y124.748 E190.71265
G1 X129.928 Y99.518 E193.03734
G1 X130.063 Y99.541 E193.04628
G1 X130.193 Y99.696 E193.05946
G1 X105.232 Y124.657 E195.35937
G1 X105.767 Y124.565 E195.39470
G1 X130.396 Y99.936 E197.66405
G1 X130.599 Y100.177 E197.68454
G1 X106.301 Y124.474 E199.92334
G1 X106.836 Y124.383 E199.95867
G1 X130.802 Y100.417 E202.16690
G1 X131.005 Y100.657 E202.18739
G1 X107.370 Y124.292 E204.36507
G1 X107.905 Y124.200 E204.40040
G1 X131.208 Y100.898 E206.54751
G1 X131.410 Y101.138 E206.56801
G1 X108.439 Y124.109 E208.68456
G1 X108.974 Y124.018 E208.71989
G1 X131.584 Y101.408 E210.80319
G1 X131.584 Y101.851 E210.83207
G1 X109.508 Y123.927 E212.86612
G1 X110.043 Y123.835 E212.90145
G1 X131.584 Y102.294 E214.88625
G1 X131.584 Y102.738 E214.91513
G1 X110.577 Y123.744 E216.85068
G1 X111.112 Y123.653 E216.88601
G1 X131.584 Y103.181 E218.77231
G1 X131.584 Y103.624 E218.80119
G1 X111.646 Y123.562 E220.63824
G1 X112.181 Y123.470 E220.67357
G1 X131.584 Y104.067 E222.46137
G1 X131.584 Y104.511 E222.49025
G1 X112.715 Y123.379 E224.22880
G1 X113.250 Y123.288 E224.26413
G1 X131.584 Y104.954 E225.95344
G1 X131.584 Y105.397 E225.98232
G1 X113.784 Y123.197 E227.62237
G1 X114.319 Y123.105 E227.65770
G1 X131.584 Y105.840 E229.24850
G1 X131.584 Y106.284 E229.27738
G1 X114.853 Y123.014 E230.81894
G1 X115.388 Y122.923 E230.85427
G1 X131.584 Y106.727 E232.34658
G1 X131.584 Y107.170 E232.37545
G1 X115.922 Y122.832 E233.81851
G1 X116.457 Y122.740 E233.85384
G1 X131.584 Y107.613 E235.24765
G1 X131.584 Y108.057 E235.27653
G1 X116.991 Y122.649 E236.62109
G1 X117.526 Y122.558 E236.65642
G1 X131.584 Y108.500 E237.95173
G1 X131.584 Y108.943 E237.98061
G1 X118.060 Y122.467 E239.22667
G1 X118.595 Y122.375 E239.26199
G1 X131.584 Y109.386 E240.45881
G1 X131.584 Y109.830 E240.48768
G1 X119.129 Y122.284 E241.63525
G1 X119.664 Y122.193 E241.67058
G1 X131.584 Y110.273 E242.76889
G1 X131.584 Y110.716 E242.79777
G1 X120.198 Y122.102 E243.84683
G1 X120.733 Y122.010 E243.88216
G1 X131.584 Y111.159 E244.88197
G1 X131.584 Y111.603 E244.91085
G1 X121.267 Y121.919 E245.86142
G1 X121.802 Y121.828 E245.89675
G1 X131.584 Y112.046 E246.79806
G1 X131.584 Y112.489 E246.82694
G1 X122.336 Y121.736 E247.67901
G1 X122.871 Y121.645 E247.71433
G1 X131.584 Y112.932 E248.51715
G1 X131.584 Y113.376 E248.54603
G1 X123.405 Y121.554 E249.29960
G1 X123.940 Y121.463 E249.33493
G1 X131.584 Y113.819 E250.03924
G1 X131.584 Y114.262 E250.06812
G1 X124.474 Y121.371 E250.72319
G1 X125.009 Y121.280 E250.75852
G1 X131.584 Y114.705 E251.36434
G1 X131.584 Y115.148 E251.39322
G1 X125.543 Y121.189 E251.94979
G1 X126.078 Y121.098 E251.98512
G1 X131.584 Y115.592 E252.49244
G1 X131.584 Y116.035 E252.52132
G1 X126.612 Y121.006 E252.97939
G1 X127.147 Y120.915 E253.01472
G1 X131.584 Y116.478 E253.42354
G1 X131.584 Y116.921 E253.45242
G1 X127.681 Y120.824 E253.81199
G1 X128.216 Y120.733 E253.84732
G1 X131.584 Y117.365 E254.15764
G1 X131.584 Y117.808 E254.18652
G1 X128.750 Y120.641 E254.44760
G1 X129.285 Y120.550 E254.48292
G1 X131.584 Y118.251 E254.69475
G1 X131.584 Y118.413 E254.70528
G1 X130.064 Y120.215 E254.85888
G1 X129.820 Y120.459 E254.88138
G1 Z0.500 F7800.000
M104 S215 ; set temperature
M140 S60 ; set bed temperature
G1 Z0.830 F7800.000
G1 X88.220 Y127.783 F7800.000
G1 F4800
G1 X88.220 Y92.217 E256.68280
G1 X130.109 Y99.369 E258.83523
G1 X131.780 Y101.349 E258.96646
G1 X131.780 Y118.651 E259.84278
G1 X130.109 Y120.631 E259.97402
G1 X88.279 Y127.773 E262.12341
G1 X89.579 Y127.360 F7800.000
G1 F4653.56
G1 X98.480 Y94.141 E263.92018
G1 X96.455 Y93.918 F7800.000
G1 F4653.56
G1 X88.396 Y96.077 E264.35608
G1 X90.940 Y92.854 F7800.000
G1 F4653.56
G1 X88.544 Y101.798 E264.83988
G1 X88.396 Y103.962 F7800.000
G1 F4653.56
G1 X114.428 Y96.987 E266.24793
G1 X113.560 Y96.715 F7800.000
G1 F4653.56
G1 X106.104 Y124.539 E267.75285
G1 X114.367 Y123.128 F7800.000
G1 F4653.56
G1 X121.099 Y98.003 E269.11184
G1 X128.639 Y99.290 F7800.000
G1 F4653.56
G1 X122.630 Y121.718 E270.32490
G1 X131.305 Y118.765 F7800.000
G1 F4653.56
G1 X131.456 Y118.202 E270.35540
G1 X131.604 Y116.038 F7800.000
G1 F4653.56
G1 X90.729 Y126.991 E272.56626
G1 X88.746 Y121.058 F7800.000
G1 F4653.56
G1 X88.746 Y127.483 E272.90194
G1 X94.234 Y126.546 E273.19281
G1 X88.450 Y120.762 E273.62018
G1 X88.450 Y109.991 E274.18289
G1 X103.434 Y124.975 E275.29000
G1 X112.634 Y123.404 E275.77761
G1 X88.450 Y99.220 E277.56446
G1 X88.450 Y92.517 E277.91467
G1 X93.355 Y93.355 E278.17462
G1 X121.834 Y121.834 E280.27883
G1 X130.058 Y120.430 E280.71470
G1 X130.581 Y119.810 E280.75707
G1 X106.343 Y95.572 E282.54789
G1 X119.331 Y97.789 E283.23627
G1 X131.550 Y110.009 E284.13912
G1 X131.604 Y108.153 F7800.000
G1 F4653.56
G1 X88.396 Y119.731 E286.47619
G1 X88.396 Y111.847 F7800.000
G1 F4653.56
G1 X130.803 Y100.484 E288.76993
G1 X106.020 Y95.428 F7800.000
G1 F4653.56
G1 X97.842 Y125.950 E290.42077
G1 Z1.160 F7800.000
G1 X88.220 Y127.783 F7800.000
G1 F4800
G1 X88.220 Y92.217 E292.22219
G1 X130.109 Y99.369 E294.37462
G1 X131.780 Y101.349 E294.50585
G1 X131.780 Y118.651 E295.38217
G1 X130.109 Y120.631 E295.51341
G1 X88.279 Y127.773 E297.66280
G1 X89.579 Y127.360 F7800.000
G1 F4653.56
G1 X98.480 Y94.141 E299.45957
G1 X96.455 Y93.918 F7800.000
G1 F4653.56
G1 X88.396 Y96.077 E299.89547
G1 X90.940 Y92.854 F7800.000
G1 F4653.56
G1 X88.544 Y101.798 E300.37928
G1 X88.396 Y103.962 F7800.000
G1 F4653.56
G1 X114.428 Y96.987 E301.78732
G1 X113.560 Y96.715 F7800.000
G1 F4653.56
G1 X106.104 Y124.539 E303.29224
G1 X114.367 Y123.128 F7800.000
G1 F4653.56
G1 X121.099 Y98.003 E304.65123
G1 X128.639 Y99.290 F7800.000
G1 F4653.56
G1 X122.630 Y121.718 E305.86430
G1 X131.305 Y118.765 F7800.000
G1 F4653.56
G1 X131.456 Y118.202 E305.89479
G1 X131.604 Y116.038 F7800.000
G1 F4653.56
G1 X90.729 Y126.991 E308.10565
G1 X88.746 Y121.058 F7800.000
G1 F4653.56
G1 X88.746 Y127.483 E308.44133
G1 X94.234 Y126.546 E308.73220
G1 X88.450 Y120.762 E309.15957
G1 X88.450 Y109.991 E309.72228
G1 X103.434 Y124.975 E310.82939
G1 X112.634 Y123.404 E311.31700
G1 X88.450 Y99.220 E313.10385
G1 X88.450 Y92.517 E313.45406
G1 X93.355 Y93.355 E313.71402
G1 X121.834 Y121.834 E315.81822
G1 X130.058 Y120.430 E316.25409
G1 X130.581 Y119.810 E316.29646
G1 X106.343 Y95.572 E318.08729
G1 X119.331 Y97.789 E318.77567
G1 X131.550 Y110.009 E319.67851
G1 X131.604 Y108.153 F7800.000
G1 F4653.56
G1 X88.396 Y119.731 E322.01559
G1 X88.396 Y111.847 F7800.000
G1 F4653.56
G1 X130.803 Y100.484 E324.30932
G1 X106.020 Y95.428 F7800.000
G1 F4653.56
G1 X97.842 Y125.950 E325.96016
M106 S242.25
G1 Z1.490 F7800.000
G1 X88.220 Y127.783 F7800.000
G1 F4800
G1 X88.220 Y92.217 E327.76158
G1 X130.109 Y99.369 E329.91401
G1 X131.780 Y101.349 E330.04524
G1 X131.780 Y118.651 E330.92157
