; generated by Slic3r 1.3.0 on 2024-07-28 at 20:15:03

; external perimeters extrusion width = 0.44mm (0.00mm^3/s)
; perimeters extrusion width = 0.45mm (0.00mm^3/s)
; infill extrusion width = 0.45mm (0.00mm^3/s)
; solid infill extrusion width = 0.45mm (0.00mm^3/s)
; top infill extrusion width = 0.45mm (0.00mm^3/s)
; support material extrusion width = 0.44mm (0.00mm^3/s)

M107
M190 S67 ; set bed temperature and wait for it to be reached
M104 S225 ; set temperature
G28 ; home all axes
G1 Z5 F5000 ; lift nozzle

; Filament gcode

M109 S225 ; set temperature and wait for it to be reached
G21 ; set units to millimeters
G90 ; use absolute coordinates
M82 ; use absolute distances for extrusion
G92 E0
G1 Z0.500 F7800.000
G1 E-2.00000 F2400.00000
G92 E0
G1 X23.595 Y70.575 F7800.000
G1 E2.00000 F2400.00000
G1 F1800
G1 X66.261 Y52.242 E5.01863
G1 X69.666 Y51.541 E5.24461
G1 X102.015 Y51.541 E7.34738
G1 X103.719 Y51.711 E7.45868
G1 X194.704 Y70.045 E13.49180
G1 X197.163 Y70.946 E13.66205
G1 X199.238 Y72.544 E13.83231
G1 X200.739 Y74.691 E14.00256
G1 X201.525 Y77.189 E14.17282
G1 X201.625 Y78.500 E14.25829
G1 X201.625 Y158.500 E19.45849
G1 X201.228 Y161.089 E19.62875
G1 X200.071 Y163.439 E19.79901
G1 X198.263 Y165.334 E19.96926
G1 X195.969 Y166.598 E20.13952
G1 X193.000 Y167.125 E20.33554
G1 X27.000 Y167.125 E31.12597
G1 X24.411 Y166.728 E31.29623
G1 X22.061 Y165.571 E31.46648
G1 X20.166 Y163.763 E31.63674
G1 X18.902 Y161.469 E31.80700
G1 X18.375 Y158.500 E32.00302
G1 X18.375 Y78.500 E37.20323
G1 X18.772 Y75.911 E37.37348
G1 X19.929 Y73.561 E37.54374
G1 X21.737 Y71.666 E37.71399
G1 X23.543 Y70.606 E37.85013
G1 X23.718 Y70.863 F7800.000
G1 F1800
G1 X66.385 Y52.529 E40.86876
G1 X69.666 Y51.854 E41.08655
G1 X102.015 Y51.854 E43.18932
G1 X103.657 Y52.017 E43.29658
G1 X194.642 Y70.351 E49.32970
G1 X197.054 Y71.243 E49.49682
G1 X199.077 Y72.828 E49.66395
G1 X200.520 Y74.957 E49.83107
G1 X201.313 Y78.500 E50.06710
G1 X201.313 Y158.500 E55.26730
G1 X200.915 Y161.040 E55.43443
G1 X199.760 Y163.337 E55.60155
G1 X197.959 Y165.172 E55.76867
G1 X195.683 Y166.368 E55.93579
G1 X193.000 Y166.813 E56.11259
G1 X27.000 Y166.813 E66.90302
G1 X24.460 Y166.415 E67.07014
G1 X22.163 Y165.260 E67.23726
G1 X20.328 Y163.459 E67.40438
G1 X19.132 Y161.183 E67.57151
G1 X18.687 Y158.500 E67.74830
G1 X18.687 Y78.500 E72.94851
G1 X19.085 Y75.960 E73.11563
G1 X20.240 Y73.663 E73.28275
G1 X22.041 Y71.828 E73.44987
G1 X23.666 Y70.892 E73.57178
G1 E71.57178 F2400.00000
G92 E0
G1 X152.780 Y143.720 F7800.000
G1 E2.00000 F2400.00000
G1 F1800
G1 X152.780 Y93.280 E5.48844
G1 X183.220 Y93.280 E7.59367
G1 X183.220 Y143.720 E11.08210
G1 X152.840 Y143.720 E13.18319
G1 E11.18319 F2400.00000
G92 E0
G1 X137.220 Y128.720 F7800.000
G1 E2.00000 F2400.00000
G1 F1800
G1 X96.780 Y128.720 E4.79683
G1 X96.780 Y108.280 E6.21047
G1 X137.220 Y108.280 E9.00730
G1 X137.220 Y128.660 E10.41678
G1 E8.41678 F2400.00000
G92 E0
G1 X77.220 Y143.720 F7800.000
G1 E2.00000 F2400.00000
G1 F1800
G1 X36.780 Y143.720 E4.79683
G1 X36.780 Y93.280 E8.28527
G1 X77.220 Y93.280 E11.08210
G1 X77.220 Y143.660 E14.56639
G1 E12.56639 F2400.00000
G92 E0
G1 X81.780 Y146.280 F7800.000
G1 E2.00000 F2400.00000
G1 F1800
G1 X81.780 Y153.720 E2.51455
G1 X86.780 Y153.720 E2.86035
G1 X86.780 Y158.280 E3.17572
G1 X27.220 Y158.280 E7.29490
G1 X27.220 Y153.720 E7.61027
G1 X32.220 Y153.720 E7.95607
G1 X32.220 Y146.280 E8.47062
G1 X27.220 Y146.280 E8.81642
G1 X27.220 Y90.720 E12.65896
G1 X32.220 Y90.720 E13.00476
G1 X32.220 Y83.280 E13.51931
G1 X27.220 Y83.280 E13.86511
G1 X27.220 Y78.720 E14.18048
G1 X86.780 Y78.720 E18.29965
G1 X86.780 Y83.280 E18.61502
G1 X81.780 Y83.280 E18.96082
G1 X81.780 Y90.720 E19.47537
G1 X86.780 Y90.720 E19.82118
G1 X86.780 Y98.720 E20.37446
G1 X143.220 Y98.720 E24.27785
G1 X143.220 Y78.720 E25.66105
G1 X149.780 Y78.720 E26.11474
G1 X149.780 Y83.720 E26.46055
G1 X157.220 Y83.720 E26.97510
G1 X157.220 Y78.720 E27.32090
G1 X178.780 Y78.720 E28.81199
G1 X178.780 Y83.720 E29.15779
G1 X186.220 Y83.720 E29.67234
G1 X186.220 Y78.720 E30.01814
G1 X192.780 Y78.720 E30.47183
G1 X192.780 Y158.280 E35.97421
G1 X186.220 Y158.280 E36.42790
G1 X186.220 Y153.280 E36.77370
G1 X178.780 Y153.280 E37.28825
G1 X178.780 Y158.280 E37.63405
G1 X157.220 Y158.280 E39.12514
G1 X157.220 Y153.280 E39.47094
G1 X149.780 Y153.280 E39.98549
G1 X149.780 Y158.280 E40.33130
G1 X143.220 Y158.280 E40.78499
G1 X143.220 Y138.280 E42.16819
G1 X86.780 Y138.280 E46.07158
G1 X86.780 Y146.280 E46.62486
G1 X81.840 Y146.280 E46.96652
G1 E44.96652 F2400.00000
G92 E0
G1 X86.178 Y146.084 F7800.000
G1 E2.00000 F2400.00000
G1 F1800
G1 X86.584 Y145.678 E2.03736
G1 X86.584 Y145.235 E2.06615
G1 X85.735 Y146.084 E2.14422
G1 X85.293 Y146.084 E2.17301
G1 X86.584 Y144.793 E2.29179
G1 X86.584 Y144.350 E2.32058
G1 X84.850 Y146.084 E2.48008
G1 X84.408 Y146.084 E2.50887
G1 X86.584 Y143.908 E2.70908
G1 X86.584 Y143.465 E2.73787
G1 X83.965 Y146.084 E2.97880
G1 X83.523 Y146.084 E3.00759
G1 X86.584 Y143.023 E3.28923
G1 X86.584 Y142.580 E3.31802
G1 X83.080 Y146.084 E3.64037
G1 X82.637 Y146.084 E3.66916
G1 X86.584 Y142.137 E4.03223
G1 X86.584 Y141.695 E4.06102
G1 X82.195 Y146.084 E4.46480
G1 X81.752 Y146.084 E4.49359
G1 X86.584 Y141.252 E4.93809
G1 X86.584 Y140.810 E4.96688
G1 E2.96688 F2400.00000
G92 E0
G1 X86.584 Y138.154 F7800.000
G1 E2.00000 F2400.00000
G1 F1800
G1 X66.654 Y158.084 E3.83346
G1 X67.097 Y158.084 E3.86225
G1 X86.584 Y138.597 E5.65499
G1 X86.584 Y139.040 E5.68378
G1 X67.539 Y158.084 E7.43581
G1 X67.982 Y158.084 E7.46459
G1 X86.584 Y139.482 E9.17591
G1 X86.584 Y139.925 E9.20470
G1 X68.425 Y158.084 E10.87530
G1 X68.867 Y158.084 E10.90409
G1 X86.584 Y140.367 E12.53398
G1 X86.584 Y140.810 E12.56276
G1 X69.310 Y158.084 E14.15194
G1 X69.752 Y158.084 E14.18073
G1 X81.584 Y146.252 E15.26920
G1 X81.584 Y146.695 E15.29799
G1 X70.195 Y158.084 E16.34575
G1 X70.637 Y158.084 E16.37454
G1 X81.584 Y147.137 E17.38159
G1 X81.584 Y147.580 E17.41038
G1 X71.080 Y158.084 E18.37671
G1 X71.523 Y158.084 E18.40550
G1 X81.584 Y148.023 E19.33112
G1 X81.584 Y148.465 E19.35991
G1 X71.965 Y158.084 E20.24481
G1 X72.408 Y158.084 E20.27360
G1 X81.584 Y148.908 E21.11779
G1 X81.584 Y149.350 E21.14658
G1 X72.850 Y158.084 E21.95006
G1 X73.293 Y158.084 E21.97885
G1 X81.584 Y149.793 E22.74161
G1 X81.584 Y150.235 E22.77040
G1 X73.735 Y158.084 E23.49245
G1 X74.178 Y158.084 E23.52124
G1 X81.584 Y150.678 E24.20258
G1 X81.584 Y151.120 E24.23137
G1 X74.620 Y158.084 E24.87199
G1 X75.063 Y158.084 E24.90078
G1 X81.584 Y151.563 E25.50069
G1 X81.584 Y152.006 E25.52948
G1 X75.506 Y158.084 E26.08867
G1 X75.948 Y158.084 E26.11746
G1 X81.584 Y152.448 E26.63594
G1 X81.584 Y152.891 E26.66473
G1 X76.391 Y158.084 E27.14250
G1 X76.833 Y158.084 E27.17129
G1 X81.584 Y153.333 E27.60834
G1 X81.584 Y153.776 E27.63713
G1 X77.276 Y158.084 E28.03347
G1 X77.718 Y158.084 E28.06226
G1 X81.886 Y153.916 E28.44569
G1 X82.329 Y153.916 E28.47448
G1 X78.161 Y158.084 E28.85791
G1 X78.603 Y158.084 E28.88670
G1 X82.771 Y153.916 E29.27013
G1 X83.214 Y153.916 E29.29892
G1 X79.046 Y158.084 E29.68235
G1 X79.489 Y158.084 E29.71114
G1 X83.656 Y153.916 E30.09457
G1 X84.099 Y153.916 E30.12336
G1 X79.931 Y158.084 E30.50679
G1 X80.374 Y158.084 E30.53558
G1 X84.542 Y153.916 E30.91901
G1 X84.984 Y153.916 E30.94780
G1 X80.816 Y158.084 E31.33123
G1 X81.259 Y158.084 E31.36002
G1 X85.427 Y153.916 E31.74345
G1 X85.869 Y153.916 E31.77224
G1 X81.701 Y158.084 E32.15567
G1 X82.144 Y158.084 E32.18446
G1 X86.312 Y153.916 E32.56789
G1 X86.584 Y153.916 E32.58559
G1 X86.584 Y154.086 E32.59668
G1 X82.586 Y158.084 E32.96444
G1 X83.029 Y158.084 E32.99322
G1 X86.584 Y154.529 E33.32027
G1 X86.584 Y154.972 E33.34906
G1 X83.472 Y158.084 E33.63539
G1 X83.914 Y158.084 E33.66418
G1 X86.584 Y155.414 E33.90979
G1 X86.584 Y155.857 E33.93858
G1 X84.357 Y158.084 E34.14348
G1 X84.799 Y158.084 E34.17227
G1 X86.584 Y156.299 E34.33646
G1 X86.584 Y156.742 E34.36525
G1 X85.242 Y158.084 E34.48872
G1 X85.684 Y158.084 E34.51751
G1 X86.584 Y157.184 E34.60027
G1 X86.584 Y157.627 E34.62906
G1 X86.127 Y158.084 E34.67111
G1 E32.67111 F2400.00000
G92 E0
G1 X77.416 Y143.782 F7800.000
G1 E2.00000 F2400.00000
G1 F1800
G1 X96.584 Y124.614 E3.76338
G1 X96.584 Y124.171 E3.79217
G1 X77.416 Y143.339 E5.55556
G1 X77.416 Y142.897 E5.58435
G1 X96.584 Y123.729 E7.34773
G1 X96.584 Y123.286 E7.37652
G1 X77.416 Y142.454 E9.13990
G1 X77.416 Y142.012 E9.16869
G1 X96.584 Y122.844 E10.93208
G1 X96.584 Y122.401 E10.96086
G1 X77.416 Y141.569 E12.72425
G1 X77.416 Y141.126 E12.75304
G1 X96.584 Y121.959 E14.51642
G1 X96.584 Y121.516 E14.54521
G1 X77.416 Y140.684 E16.30859
G1 X77.416 Y140.241 E16.33738
G1 X96.584 Y121.073 E18.10077
G1 X96.584 Y120.631 E18.12956
G1 X77.416 Y139.799 E19.89294
G1 X77.416 Y139.356 E19.92173
G1 X96.584 Y120.188 E21.68511
G1 X96.584 Y119.746 E21.71390
G1 X77.416 Y138.914 E23.47729
G1 X77.416 Y138.471 E23.50608
G1 X96.584 Y119.303 E25.26946
G1 X96.584 Y118.861 E25.29825
G1 X77.416 Y138.029 E27.06163
G1 X77.416 Y137.586 E27.09042
G1 X96.584 Y118.418 E28.85381
G1 X96.584 Y117.976 E28.88259
G1 X77.416 Y137.143 E30.64598
G1 X77.416 Y136.701 E30.67477
G1 X96.584 Y117.533 E32.43815
G1 X96.584 Y117.090 E32.46694
G1 X77.416 Y136.258 E34.23032
G1 X77.416 Y135.816 E34.25911
G1 X96.584 Y116.648 E36.02250
G1 X96.584 Y116.205 E36.05129
G1 X77.416 Y135.373 E37.81467
G1 X77.416 Y134.931 E37.84346
G1 X96.584 Y115.763 E39.60684
G1 X96.584 Y115.320 E39.63563
G1 X77.416 Y134.488 E41.39902
G1 X77.416 Y134.046 E41.42780
G1 X96.584 Y114.878 E43.19119
G1 X96.584 Y114.435 E43.21998
G1 X77.416 Y133.603 E44.98336
G1 X77.416 Y133.160 E45.01215
G1 X96.584 Y113.993 E46.77553
G1 X96.584 Y113.550 E46.80432
G1 X77.416 Y132.718 E48.56771
G1 X77.416 Y132.275 E48.59650
G1 X96.584 Y113.107 E50.35988
G1 X96.584 Y112.665 E50.38867
G1 X77.416 Y131.833 E52.15205
G1 X77.416 Y131.390 E52.18084
G1 X96.584 Y112.222 E53.94423
G1 X96.584 Y111.780 E53.97302
G1 X77.416 Y130.948 E55.73640
G1 X77.416 Y130.505 E55.76519
G1 X96.584 Y111.337 E57.52857
G1 X96.584 Y110.895 E57.55736
G1 X77.416 Y130.063 E59.32075
G1 X77.416 Y129.620 E59.34953
G1 X96.584 Y110.452 E61.11292
G1 X96.584 Y110.010 E61.14171
G1 X77.416 Y129.177 E62.90509
G1 X77.416 Y128.735 E62.93388
G1 X96.584 Y109.567 E64.69726
G1 X96.584 Y109.124 E64.72605
G1 X77.416 Y128.292 E66.48944
G1 X77.416 Y127.850 E66.51823
G1 X96.584 Y108.682 E68.28161
G1 X96.584 Y108.239 E68.31040
G1 E66.31040 F2400.00000
G92 E0
G1 X86.335 Y83.084 F7800.000
G1 E2.00000 F2400.00000
G1 F1800
G1 X86.584 Y82.835 E2.02292
G1 X86.584 Y82.392 E2.05171
G1 X85.892 Y83.084 E2.11534
G1 X85.450 Y83.084 E2.14413
G1 X86.584 Y81.950 E2.24848
G1 X86.584 Y81.507 E2.27727
G1 X85.007 Y83.084 E2.42233
G1 X84.565 Y83.084 E2.45112
G1 X86.584 Y81.065 E2.63690
G1 X86.584 Y80.622 E2.66569
G1 X84.122 Y83.084 E2.89218
G1 X83.679 Y83.084 E2.92097
G1 X86.584 Y80.179 E3.18817
G1 X86.584 Y79.737 E3.21696
G1 X83.237 Y83.084 E3.52488
G1 X82.794 Y83.084 E3.55367
G1 X86.584 Y79.294 E3.90230
G1 X86.584 Y78.916 E3.92691
G1 X86.520 Y78.916 E3.93109
G1 X82.352 Y83.084 E4.31452
G1 X81.909 Y83.084 E4.34331
G1 X86.077 Y78.916 E4.72674
G1 X85.635 Y78.916 E4.75553
G1 X81.467 Y83.084 E5.13896
G1 X81.341 Y83.084 E5.14715
G1 X81.341 Y83.210 E5.15535
G1 X81.584 Y82.967 F7800.000
G1 F1800
G1 X71.467 Y93.084 E6.08610
G1 X71.909 Y93.084 E6.11489
G1 X81.584 Y83.409 E7.00494
G1 X81.584 Y83.852 E7.03373
G1 X72.352 Y93.084 E7.88306
G1 X72.794 Y93.084 E7.91185
G1 X81.584 Y84.294 E8.72046
G1 X81.584 Y84.737 E8.74925
G1 X73.237 Y93.084 E9.51715
G1 X73.679 Y93.084 E9.54594
G1 X81.584 Y85.179 E10.27313
G1 X81.584 Y85.622 E10.30192
G1 X74.122 Y93.084 E10.98840
G1 X74.565 Y93.084 E11.01719
G1 X81.584 Y86.065 E11.66295
G1 X81.584 Y86.507 E11.69174
G1 X75.007 Y93.084 E12.29678
G1 X75.450 Y93.084 E12.32557
G1 X81.584 Y86.950 E12.88991
G1 X81.584 Y87.392 E12.91869
G1 X75.892 Y93.084 E13.44231
G1 X76.335 Y93.084 E13.47110
G1 X81.584 Y87.835 E13.95401
G1 X81.584 Y88.277 E13.98280
G1 X76.777 Y93.084 E14.42499
G1 X77.220 Y93.084 E14.45378
G1 X81.584 Y88.720 E14.85526
G1 X81.584 Y89.162 E14.88405
G1 X77.416 Y93.330 E15.26748
G1 X77.416 Y93.773 E15.29627
G1 X81.584 Y89.605 E15.67970
G1 X81.584 Y90.048 E15.70849
G1 X77.416 Y94.215 E16.09192
G1 X77.416 Y94.658 E16.12071
G1 X81.584 Y90.490 E16.50414
G1 X81.584 Y90.916 E16.53184
G1 X81.601 Y90.916 E16.53293
G1 X77.416 Y95.101 E16.91788
G1 X77.416 Y95.543 E16.94667
G1 X82.043 Y90.916 E17.37235
G1 X82.486 Y90.916 E17.40114
G1 X77.416 Y95.986 E17.86752
G1 X77.416 Y96.428 E17.89631
G1 X82.928 Y90.916 E18.40341
G1 X83.371 Y90.916 E18.43220
G1 X77.416 Y96.871 E18.98002
G1 X77.416 Y97.313 E19.00881
G1 X83.813 Y90.916 E19.59733
G1 X84.256 Y90.916 E19.62612
G1 X77.416 Y97.756 E20.25537
G1 X77.416 Y98.198 E20.28415
G1 X84.698 Y90.916 E20.95411
G1 X85.141 Y90.916 E20.98290
G1 X77.416 Y98.641 E21.69357
G1 X77.416 Y99.084 E21.72236
G1 X85.584 Y90.916 E22.47374
G1 X86.026 Y90.916 E22.50253
G1 X77.416 Y99.526 E23.29463
G1 X77.416 Y99.969 E23.32342
G1 X86.469 Y90.916 E24.15623
G1 X86.584 Y90.916 E24.16373
G1 X86.584 Y91.243 E24.18502
G1 X77.416 Y100.411 E25.02844
G1 X77.416 Y100.854 E25.05722
G1 X86.584 Y91.686 E25.90064
G1 X86.584 Y92.128 E25.92943
G1 X77.416 Y101.296 E26.77284
G1 X77.416 Y101.739 E26.80163
G1 X86.584 Y92.571 E27.64505
G1 X86.584 Y93.014 E27.67384
G1 X77.416 Y102.181 E28.51725
G1 X77.416 Y102.624 E28.54604
G1 X86.584 Y93.456 E29.38946
G1 X86.584 Y93.899 E29.41825
G1 X77.416 Y103.067 E30.26166
G1 X77.416 Y103.509 E30.29045
G1 X86.584 Y94.341 E31.13387
G1 X86.584 Y94.784 E31.16265
G1 X77.416 Y103.952 E32.00607
G1 X77.416 Y104.394 E32.03486
G1 X86.584 Y95.226 E32.87827
G1 X86.584 Y95.669 E32.90706
G1 X77.416 Y104.837 E33.75048
G1 X77.416 Y105.279 E33.77927
G1 X86.584 Y96.111 E34.62268
G1 X86.584 Y96.554 E34.65147
G1 X77.416 Y105.722 E35.49489
G1 X77.416 Y106.164 E35.52368
G1 X86.584 Y96.997 E36.36709
G1 X86.584 Y97.439 E36.39588
G1 X77.416 Y106.607 E37.23930
G1 X77.416 Y107.050 E37.26808
G1 X86.584 Y97.882 E38.11150
G1 X86.584 Y98.324 E38.14029
G1 X77.416 Y107.492 E38.98370
G1 X77.416 Y107.935 E39.01249
G1 X86.584 Y98.767 E39.85591
G1 X86.584 Y98.916 E39.86562
G1 X86.877 Y98.916 E39.88470
G1 X77.416 Y108.377 E40.75510
G1 X77.416 Y108.820 E40.78389
G1 X87.320 Y98.916 E41.69500
G1 X87.762 Y98.916 E41.72379
G1 X77.416 Y109.262 E42.67562
G1 X77.416 Y109.705 E42.70441
G1 X88.205 Y98.916 E43.69695
G1 X88.647 Y98.916 E43.72574
G1 X77.416 Y110.147 E44.75899
G1 X77.416 Y110.590 E44.78778
G1 X89.090 Y98.916 E45.86175
G1 X89.533 Y98.916 E45.89054
G1 X77.416 Y111.033 E47.00522
G1 X77.416 Y111.475 E47.03401
G1 X89.975 Y98.916 E48.18941
G1 X90.418 Y98.916 E48.21820
G1 X77.416 Y111.918 E49.41431
G1 X77.416 Y112.360 E49.44310
G1 X90.860 Y98.916 E50.67992
G1 X91.303 Y98.916 E50.70871
G1 X77.416 Y112.803 E51.98625
G1 X77.416 Y113.245 E52.01504
G1 X91.745 Y98.916 E53.33329
G1 X92.188 Y98.916 E53.36208
G1 X77.416 Y113.688 E54.72105
G1 X77.416 Y114.130 E54.74984
G1 X92.630 Y98.916 E56.14952
G1 X93.073 Y98.916 E56.17830
G1 X77.416 Y114.573 E57.61870
G1 X77.416 Y115.016 E57.64749
G1 X93.516 Y98.916 E59.12859
G1 X93.958 Y98.916 E59.15738
G1 X77.416 Y115.458 E60.67921
G1 X77.416 Y115.901 E60.70799
G1 X94.401 Y98.916 E62.27053
G1 X94.843 Y98.916 E62.29932
G1 X77.416 Y116.343 E63.90257
G1 X77.416 Y116.786 E63.93136
G1 X95.286 Y98.916 E65.57532
G1 X95.728 Y98.916 E65.60411
G1 X77.416 Y117.228 E67.28879
G1 X77.416 Y117.671 E67.31758
G1 X96.171 Y98.916 E69.04297
G1 X96.614 Y98.916 E69.07176
G1 X77.416 Y118.114 E70.83786
G1 X77.416 Y118.556 E70.86665
G1 X97.056 Y98.916 E72.67347
G1 X97.499 Y98.916 E72.70226
G1 X77.416 Y118.999 E74.54979
G1 X77.416 Y119.441 E74.57858
G1 X97.941 Y98.916 E76.46682
G1 X98.384 Y98.916 E76.49561
G1 X77.416 Y119.884 E78.42457
G1 X77.416 Y120.326 E78.45336
G1 X98.826 Y98.916 E80.42304
G1 X99.269 Y98.916 E80.45183
G1 X77.416 Y120.769 E82.46221
G1 X77.416 Y121.211 E82.49100
G1 X99.711 Y98.916 E84.54210
G1 X100.154 Y98.916 E84.57089
G1 X77.416 Y121.654 E86.66271
G1 X77.416 Y122.097 E86.69150
G1 X100.597 Y98.916 E88.82403
G1 X101.039 Y98.916 E88.85282
G1 X77.416 Y122.539 E91.02606
