; generated by Slic3r 1.3.0 on 2024-07-27 at 22:27:57

; external perimeters extrusion width = 0.44mm (2.38mm^3/s)
; perimeters extrusion width = 0.18mm (1.64mm^3/s)
; infill extrusion width = 0.50mm (7.31mm^3/s)
; solid infill extrusion width = 0.56mm (2.07mm^3/s)
; top infill extrusion width = 0.56mm (1.55mm^3/s)
; support material extrusion width = 0.44mm (4.76mm^3/s)

M107
M190 S67 ; set bed temperature and wait for it to be reached
M104 S225 ; set temperature
G28 ; home all axes
G1 Z5 F5000 ; lift nozzle

; Filament gcode

M109 S225 ; set temperature and wait for it to be reached
G21 ; set units to millimeters
G90 ; use absolute coordinates
M82 ; use absolute distances for extrusion
G92 E0
G1 Z0.400 F7800.000
G1 E-2.00000 F2400.00000
G92 E0
G1 X73.954 Y95.265 F7800.000
G1 E2.00000 F2400.00000
G1 F1800
G1 X76.289 Y93.833 E2.32531
G1 X80.000 Y93.072 E2.77528
G1 X140.000 Y93.072 E9.90119
G1 X142.710 Y93.470 E10.22650
G1 X145.191 Y94.630 E10.55181
G1 X147.235 Y96.454 E10.87712
G1 X148.667 Y98.789 E11.20242
G1 X149.428 Y102.500 E11.65239
G1 X149.428 Y117.500 E13.43387
G1 X149.030 Y120.210 E13.75918
G1 X147.870 Y122.691 E14.08449
G1 X146.046 Y124.735 E14.40980
G1 X143.711 Y126.167 E14.73511
G1 X140.000 Y126.928 E15.18507
G1 X80.000 Y126.928 E22.31098
G1 X77.290 Y126.530 E22.63629
G1 X74.809 Y125.370 E22.96160
G1 X72.765 Y123.546 E23.28691
G1 X71.333 Y121.211 E23.61222
G1 X70.572 Y117.500 E24.06219
G1 X70.572 Y102.500 E25.84367
G1 X70.970 Y99.790 E26.16898
G1 X72.130 Y97.309 E26.49429
G1 X73.914 Y95.310 E26.81247
G1 X74.651 Y95.621 F7800.000
G1 F1800
G1 X76.949 Y94.337 E27.12515
G1 X80.000 Y93.786 E27.49334
G1 X140.000 Y93.786 E34.61925
G1 X142.603 Y94.184 E34.93193
G1 X144.968 Y95.340 E35.24460
G1 X146.879 Y97.151 E35.55728
G1 X148.163 Y99.449 E35.86996
G1 X148.714 Y102.500 E36.23815
G1 X148.714 Y117.500 E38.01963
G1 X148.316 Y120.103 E38.33230
G1 X147.160 Y122.468 E38.64498
G1 X145.349 Y124.379 E38.95766
G1 X143.051 Y125.663 E39.27034
G1 X140.000 Y126.214 E39.63853
G1 X80.000 Y126.214 E46.76444
G1 X77.397 Y125.816 E47.07712
G1 X75.032 Y124.660 E47.38979
G1 X73.121 Y122.849 E47.70247
G1 X71.837 Y120.551 E48.01515
G1 X71.286 Y117.500 E48.38334
G1 X71.286 Y102.500 E50.16482
G1 X71.684 Y99.897 E50.47750
G1 X72.840 Y97.532 E50.79017
G1 X74.609 Y95.665 E51.09573
G1 E49.09573 F2400.00000
G92 E0
G1 X133.886 Y113.614 F7800.000
G1 E2.00000 F2400.00000
G1 F1800
G1 X138.886 Y113.614 E2.59383
G1 X138.886 Y116.386 E2.92301
G1 X81.114 Y116.386 E9.78427
G1 X81.114 Y113.614 E10.11345
G1 X86.114 Y113.614 E10.70727
G1 X86.114 Y106.386 E11.56575
G1 X81.114 Y106.386 E12.15957
G1 X81.114 Y103.614 E12.48875
G1 X138.886 Y103.614 E19.35002
G1 X138.886 Y106.386 E19.67920
G1 X133.886 Y106.386 E20.27302
G1 X133.886 Y113.554 E21.12437
G1 X134.600 Y112.900 F7800.000
G1 F1800
G1 X139.600 Y112.900 E21.71819
G1 X139.600 Y117.100 E22.21701
G1 X80.400 Y117.100 E29.24791
G1 X80.400 Y112.900 E29.74672
G1 X85.400 Y112.900 E30.34055
G1 X85.400 Y107.100 E31.02938
G1 X80.400 Y107.100 E31.62321
G1 X80.400 Y102.900 E32.12202
G1 X139.600 Y102.900 E39.15292
G1 X139.600 Y107.100 E39.65174
G1 X134.600 Y107.100 E40.24556
G1 X134.600 Y112.840 E40.92727
G1 X134.506 Y113.289 F7800.000
G1 E38.92727 F2400.00000
G92 E0
G1 X137.894 Y115.949 F7800.000
G1 E2.00000 F2400.00000
G1 F1800
G1 X138.449 Y115.394 E2.09335
G1 X138.449 Y114.384 E2.21336
G1 X136.884 Y115.949 E2.47644
G1 X135.873 Y115.949 E2.59645
G1 X137.772 Y114.051 E2.91547
G1 X136.762 Y114.051 E3.03549
G1 X134.863 Y115.949 E3.35451
G1 X133.853 Y115.949 E3.47453
G1 X135.752 Y114.051 E3.79355
G1 X134.741 Y114.051 E3.91356
G1 X132.843 Y115.949 E4.23259
G1 X131.832 Y115.949 E4.35260
G1 X133.731 Y114.051 E4.67162
G1 X133.449 Y114.051 E4.70510
G1 X133.449 Y113.322 E4.79164
G1 X130.822 Y115.949 E5.23304
G1 X129.812 Y115.949 E5.35306
G1 X133.449 Y112.312 E5.96419
G1 X133.449 Y111.302 E6.08421
G1 X128.802 Y115.949 E6.86507
G1 X127.791 Y115.949 E6.98508
G1 X133.449 Y110.291 E7.93567
G1 X133.449 Y109.281 E8.05568
G1 X126.781 Y115.949 E9.17599
G1 X125.771 Y115.949 E9.29601
G1 X133.449 Y108.271 E10.58604
G1 X133.449 Y107.261 E10.70606
G1 X124.761 Y115.949 E12.16582
G1 X123.750 Y115.949 E12.28584
G1 X133.449 Y106.250 E13.91533
G1 E11.91533 F2400.00000
G92 E0
G1 X137.791 Y105.949 F7800.000
G1 E2.00000 F2400.00000
G1 F1800
G1 X138.449 Y105.291 E2.11056
G1 X138.449 Y104.281 E2.23058
G1 X136.781 Y105.949 E2.51086
G1 X135.771 Y105.949 E2.63088
G1 X137.670 Y104.051 E2.94990
G1 X136.660 Y104.051 E3.06992
G1 X134.761 Y105.949 E3.38894
G1 X133.750 Y105.949 E3.50895
G1 X135.649 Y104.051 E3.82798
G1 X134.639 Y104.051 E3.94799
G1 X122.740 Y115.949 E5.94706
G1 X121.730 Y115.949 E6.06708
G1 X133.629 Y104.051 E8.06615
G1 X132.619 Y104.051 E8.18616
G1 X120.720 Y115.949 E10.18523
G1 X119.709 Y115.949 E10.30524
G1 X131.608 Y104.051 E12.30431
G1 X130.598 Y104.051 E12.42433
G1 X118.699 Y115.949 E14.42340
G1 X117.689 Y115.949 E14.54341
G1 X129.588 Y104.051 E16.54248
G1 X128.578 Y104.051 E16.66250
G1 X116.679 Y115.949 E18.66157
G1 X115.668 Y115.949 E18.78158
G1 X127.567 Y104.051 E20.78065
G1 X126.557 Y104.051 E20.90067
G1 X114.658 Y115.949 E22.89974
G1 X113.648 Y115.949 E23.01975
G1 X125.547 Y104.051 E25.01882
G1 X124.537 Y104.051 E25.13883
G1 X112.638 Y115.949 E27.13790
G1 X111.627 Y115.949 E27.25792
G1 X123.526 Y104.051 E29.25699
G1 X122.516 Y104.051 E29.37700
G1 X110.617 Y115.949 E31.37607
G1 X109.607 Y115.949 E31.49609
G1 X121.506 Y104.051 E33.49515
G1 X120.496 Y104.051 E33.61517
G1 X108.597 Y115.949 E35.61424
G1 X107.586 Y115.949 E35.73425
G1 X119.485 Y104.051 E37.73332
G1 X118.475 Y104.051 E37.85334
G1 X106.576 Y115.949 E39.85241
G1 X105.566 Y115.949 E39.97242
G1 X117.465 Y104.051 E41.97149
G1 X116.455 Y104.051 E42.09151
G1 X104.556 Y115.949 E44.09058
G1 X103.545 Y115.949 E44.21059
G1 X115.444 Y104.051 E46.20966
G1 X114.434 Y104.051 E46.32967
G1 X102.535 Y115.949 E48.32874
G1 X101.525 Y115.949 E48.44876
G1 X113.424 Y104.051 E50.44783
G1 X112.414 Y104.051 E50.56784
G1 X100.515 Y115.949 E52.56691
G1 X99.504 Y115.949 E52.68693
G1 X111.403 Y104.051 E54.68600
G1 X110.393 Y104.051 E54.80601
G1 X98.494 Y115.949 E56.80508
G1 X97.484 Y115.949 E56.92510
G1 X109.383 Y104.051 E58.92416
G1 X108.373 Y104.051 E59.04418
G1 X96.474 Y115.949 E61.04325
G1 X95.463 Y115.949 E61.16326
G1 X107.362 Y104.051 E63.16233
G1 X106.352 Y104.051 E63.28235
G1 X94.453 Y115.949 E65.28142
G1 X93.443 Y115.949 E65.40143
G1 X105.342 Y104.051 E67.40050
G1 X104.332 Y104.051 E67.52052
G1 X92.433 Y115.949 E69.51958
G1 X91.422 Y115.949 E69.63960
G1 X103.321 Y104.051 E71.63867
G1 X102.311 Y104.051 E71.75868
G1 X90.412 Y115.949 E73.75775
G1 X89.402 Y115.949 E73.87777
G1 X101.301 Y104.051 E75.87684
G1 X100.291 Y104.051 E75.99685
G1 X88.392 Y115.949 E77.99592
G1 X87.381 Y115.949 E78.11593
G1 X99.280 Y104.051 E80.11500
G1 X98.270 Y104.051 E80.23502
G1 X86.371 Y115.949 E82.23409
G1 X85.361 Y115.949 E82.35410
G1 X97.260 Y104.051 E84.35317
G1 X96.250 Y104.051 E84.47319
G1 X86.551 Y113.750 E86.10268
G1 X86.551 Y112.739 E86.22269
G1 X95.239 Y104.051 E87.68246
G1 X94.229 Y104.051 E87.80247
G1 X86.551 Y111.729 E89.09252
G1 X86.551 Y110.719 E89.21253
G1 X93.219 Y104.051 E90.33284
G1 X92.209 Y104.051 E90.45286
G1 X86.551 Y109.709 E91.40345
G1 X86.551 Y108.698 E91.52346
G1 X91.198 Y104.051 E92.30433
G1 X90.188 Y104.051 E92.42434
G1 X86.551 Y107.688 E93.03548
G1 X86.551 Y106.678 E93.15549
G1 X89.178 Y104.051 E93.59690
G1 X88.168 Y104.051 E93.71692
G1 X86.269 Y105.949 E94.03594
G1 X85.259 Y105.949 E94.15595
G1 X87.157 Y104.051 E94.47498
G1 X86.147 Y104.051 E94.59499
G1 X84.248 Y105.949 E94.91401
G1 X83.238 Y105.949 E95.03403
G1 X85.137 Y104.051 E95.35305
G1 X84.127 Y104.051 E95.47306
G1 X82.228 Y105.949 E95.79209
G1 X81.551 Y105.949 E95.87254
G1 X81.551 Y105.616 E95.91210
G1 X83.116 Y104.051 E96.17518
G1 X82.106 Y104.051 E96.29519
G1 X81.551 Y104.606 E96.38852
G1 E94.38852 F2400.00000
G92 E0
G1 X82.209 Y114.051 F7800.000
G1 E2.00000 F2400.00000
G1 F1800
G1 X81.551 Y114.709 E2.11057
G1 X81.551 Y115.719 E2.23058
G1 X83.219 Y114.051 E2.51087
G1 X84.229 Y114.051 E2.63089
G1 X82.330 Y115.949 E2.94991
G1 X83.341 Y115.949 E3.06992
G1 X85.239 Y114.051 E3.38895
G1 X86.250 Y114.051 E3.50896
G1 X84.351 Y115.949 E3.82798
G1 Z0.400 F7800.000
M104 S215 ; set temperature
M140 S60 ; set bed temperature
G1 Z0.600 F7800.000
G1 X134.513 Y112.987 F7800.000
G1 F3600
G1 X139.513 Y112.987 E3.88497
G1 X139.513 Y117.013 E3.93086
G1 X80.487 Y117.013 E4.60365
G1 X80.487 Y112.987 E4.64954
G1 X85.487 Y112.987 E4.70653
G1 X85.487 Y107.013 E4.77462
G1 X80.487 Y107.013 E4.83161
G1 X80.487 Y102.987 E4.87750
G1 X139.513 Y102.987 E5.55029
G1 X139.513 Y107.013 E5.59618
G1 X134.513 Y107.013 E5.65317
G1 X134.513 Y112.927 E5.72058
G1 X134.780 Y112.720 F7800.000
G1 F1800
G1 X139.780 Y112.720 E5.88567
G1 X139.780 Y117.280 E6.03623
G1 X80.220 Y117.280 E8.00274
G1 X80.220 Y112.720 E8.15330
G1 X85.220 Y112.720 E8.31838
G1 X85.220 Y107.280 E8.49800
G1 X80.220 Y107.280 E8.66308
G1 X80.220 Y102.720 E8.81364
G1 X139.780 Y102.720 E10.78015
G1 X139.780 Y107.280 E10.93071
G1 X134.780 Y107.280 E11.09580
G1 X134.780 Y112.660 E11.27343
G1 X134.682 Y113.108 F7800.000
G1 X134.417 Y113.187 F7800.000
G1 F1200
G1 X138.043 Y116.813 E11.49416
G1 X138.775 Y116.813 E11.52567
G1 X135.149 Y113.187 E11.74640
G1 X135.881 Y113.187 E11.77791
G1 X139.313 Y116.619 E11.98682
G1 X139.313 Y115.887 E12.01833
G1 X136.613 Y113.187 E12.18267
G1 X137.345 Y113.187 E12.21418
G1 X139.313 Y115.155 E12.33396
G1 X139.313 Y114.423 E12.36547
G1 X138.077 Y113.187 E12.44068
G1 X138.810 Y113.187 E12.47219
G1 X139.313 Y113.690 E12.50284
G1 E10.50284 F2400.00000
G92 E0
G1 X139.313 Y103.441 F7800.000
G1 E2.00000 F2400.00000
G1 F1200
G1 X139.059 Y103.187 E2.01549
G1 X138.326 Y103.187 E2.04701
G1 X139.313 Y104.174 E2.10706
G1 X139.313 Y104.906 E2.13857
G1 X137.594 Y103.187 E2.24319
G1 X136.862 Y103.187 E2.27470
G1 X139.313 Y105.638 E2.42389
G1 X139.313 Y106.370 E2.45540
G1 X136.130 Y103.187 E2.64914
G1 X135.398 Y103.187 E2.68065
G1 X139.024 Y106.813 E2.90138
G1 X138.292 Y106.813 E2.93289
G1 X134.666 Y103.187 E3.15362
G1 X133.934 Y103.187 E3.18513
G1 X137.560 Y106.813 E3.40587
G1 X136.828 Y106.813 E3.43738
G1 X133.202 Y103.187 E3.65811
G1 X132.470 Y103.187 E3.68962
G1 X136.096 Y106.813 E3.91035
G1 X135.364 Y106.813 E3.94186
G1 X131.738 Y103.187 E4.16259
G1 X131.006 Y103.187 E4.19410
G1 X134.632 Y106.813 E4.41483
G1 X134.313 Y106.813 E4.42855
G1 X134.313 Y107.226 E4.44634
G1 X130.274 Y103.187 E4.69222
G1 X129.542 Y103.187 E4.72374
G1 X134.313 Y107.958 E5.01419
G1 X134.313 Y108.690 E5.04570
G1 X128.810 Y103.187 E5.38071
G1 X128.077 Y103.187 E5.41222
G1 X134.313 Y109.423 E5.79179
G1 X134.313 Y110.155 E5.82330
G1 X127.345 Y103.187 E6.24744
G1 X126.613 Y103.187 E6.27895
G1 X134.313 Y110.887 E6.74765
G1 X134.313 Y111.619 E6.77916
G1 X125.881 Y103.187 E7.29243
G1 X125.149 Y103.187 E7.32394
G1 X134.313 Y112.351 E7.88176
G1 X134.313 Y113.083 E7.91327
G1 X124.417 Y103.187 E8.51566
G1 X123.685 Y103.187 E8.54717
G1 X137.311 Y116.813 E9.37662
G1 X136.579 Y116.813 E9.40813
G1 X122.953 Y103.187 E10.23758
G1 X122.221 Y103.187 E10.26910
G1 X135.847 Y116.813 E11.09855
G1 X135.115 Y116.813 E11.13006
G1 X121.489 Y103.187 E11.95951
G1 X120.757 Y103.187 E11.99102
G1 X134.383 Y116.813 E12.82047
G1 X133.651 Y116.813 E12.85198
G1 X120.025 Y103.187 E13.68143
G1 X119.293 Y103.187 E13.71294
G1 X132.919 Y116.813 E14.54239
G1 X132.187 Y116.813 E14.57390
G1 X118.561 Y103.187 E15.40335
G1 X117.828 Y103.187 E15.43486
G1 X131.455 Y116.813 E16.26431
G1 X130.722 Y116.813 E16.29582
G1 X117.096 Y103.187 E17.12527
G1 X116.364 Y103.187 E17.15678
G1 X129.990 Y116.813 E17.98623
G1 X129.258 Y116.813 E18.01774
G1 X115.632 Y103.187 E18.84719
G1 X114.900 Y103.187 E18.87871
G1 X128.526 Y116.813 E19.70816
G1 X127.794 Y116.813 E19.73967
G1 X114.168 Y103.187 E20.56912
G1 X113.436 Y103.187 E20.60063
G1 X127.062 Y116.813 E21.43008
G1 X126.330 Y116.813 E21.46159
G1 X112.704 Y103.187 E22.29104
G1 X111.972 Y103.187 E22.32255
G1 X125.598 Y116.813 E23.15200
G1 X124.866 Y116.813 E23.18351
G1 X111.240 Y103.187 E24.01296
G1 X110.508 Y103.187 E24.04447
G1 X124.134 Y116.813 E24.87392
G1 X123.402 Y116.813 E24.90543
G1 X109.776 Y103.187 E25.73488
G1 X109.044 Y103.187 E25.76639
G1 X122.670 Y116.813 E26.59584
G1 X121.938 Y116.813 E26.62735
G1 X108.311 Y103.187 E27.45680
G1 X107.579 Y103.187 E27.48831
G1 X121.206 Y116.813 E28.31777
G1 X120.473 Y116.813 E28.34928
G1 X106.847 Y103.187 E29.17873
G1 X106.115 Y103.187 E29.21024
G1 X119.741 Y116.813 E30.03969
G1 X119.009 Y116.813 E30.07120
G1 X105.383 Y103.187 E30.90065
G1 X104.651 Y103.187 E30.93216
G1 X118.277 Y116.813 E31.76161
G1 X117.545 Y116.813 E31.79312
G1 X103.919 Y103.187 E32.62257
G1 X103.187 Y103.187 E32.65408
G1 X116.813 Y116.813 E33.48353
G1 X116.081 Y116.813 E33.51504
G1 X102.455 Y103.187 E34.34449
G1 X101.723 Y103.187 E34.37600
G1 X115.349 Y116.813 E35.20545
G1 X114.617 Y116.813 E35.23696
G1 X100.991 Y103.187 E36.06641
G1 X100.259 Y103.187 E36.09792
G1 X113.885 Y116.813 E36.92737
G1 X113.153 Y116.813 E36.95889
G1 X99.527 Y103.187 E37.78834
G1 X98.795 Y103.187 E37.81985
G1 X112.421 Y116.813 E38.64930
G1 X111.689 Y116.813 E38.68081
G1 X98.062 Y103.187 E39.51026
G1 X97.330 Y103.187 E39.54177
G1 X110.957 Y116.813 E40.37122
G1 X110.224 Y116.813 E40.40273
G1 X96.598 Y103.187 E41.23218
G1 X95.866 Y103.187 E41.26369
G1 X109.492 Y116.813 E42.09314
G1 X108.760 Y116.813 E42.12465
G1 X95.134 Y103.187 E42.95410
G1 X94.402 Y103.187 E42.98561
G1 X108.028 Y116.813 E43.81506
G1 X107.296 Y116.813 E43.84657
G1 X93.670 Y103.187 E44.67602
G1 X92.938 Y103.187 E44.70753
G1 X106.564 Y116.813 E45.53699
G1 X105.832 Y116.813 E45.56850
G1 X92.206 Y103.187 E46.39795
G1 X91.474 Y103.187 E46.42946
G1 X105.100 Y116.813 E47.25891
G1 X104.368 Y116.813 E47.29042
G1 X90.742 Y103.187 E48.11987
G1 X90.010 Y103.187 E48.15138
G1 X103.636 Y116.813 E48.98083
G1 X102.904 Y116.813 E49.01234
G1 X89.278 Y103.187 E49.84179
G1 X88.546 Y103.187 E49.87330
G1 X102.172 Y116.813 E50.70275
G1 X101.440 Y116.813 E50.73426
G1 X87.813 Y103.187 E51.56371
G1 X87.081 Y103.187 E51.59522
G1 X100.708 Y116.813 E52.42467
G1 X99.975 Y116.813 E52.45618
G1 X86.349 Y103.187 E53.28563
G1 X85.617 Y103.187 E53.31715
G1 X99.243 Y116.813 E54.14660
G1 X98.511 Y116.813 E54.17811
G1 X84.885 Y103.187 E55.00756
G1 X84.153 Y103.187 E55.03907
G1 X97.779 Y116.813 E55.86852
G1 X97.047 Y116.813 E55.90003
G1 X83.421 Y103.187 E56.72948
G1 X82.689 Y103.187 E56.76099
G1 X96.315 Y116.813 E57.59044
G1 X95.583 Y116.813 E57.62195
G1 X85.687 Y106.917 E58.22435
G1 X85.687 Y107.649 E58.25586
G1 X94.851 Y116.813 E58.81369
G1 X94.119 Y116.813 E58.84520
G1 X85.687 Y108.381 E59.35847
G1 X85.687 Y109.113 E59.38998
G1 X93.387 Y116.813 E59.85869
G1 X92.655 Y116.813 E59.89020
G1 X85.687 Y109.845 E60.31435
G1 X85.687 Y110.577 E60.34586
G1 X91.923 Y116.813 E60.72544
G1 X91.191 Y116.813 E60.75695
G1 X85.687 Y111.309 E61.09197
G1 X85.687 Y112.041 E61.12348
G1 X90.459 Y116.813 E61.41394
G1 X89.726 Y116.813 E61.44545
G1 X85.687 Y112.774 E61.69135
G1 X85.687 Y113.187 E61.70914
G1 X85.368 Y113.187 E61.72286
G1 X88.994 Y116.813 E61.94359
G1 X88.262 Y116.813 E61.97510
G1 X84.636 Y113.187 E62.19583
G1 X83.904 Y113.187 E62.22734
G1 X87.530 Y116.813 E62.44807
G1 X86.798 Y116.813 E62.47958
G1 X83.172 Y113.187 E62.70031
G1 X82.440 Y113.187 E62.73182
G1 X86.066 Y116.813 E62.95255
G1 X85.334 Y116.813 E62.98406
G1 X81.708 Y113.187 E63.20479
G1 X80.976 Y113.187 E63.23630
G1 X84.602 Y116.813 E63.45703
G1 X83.870 Y116.813 E63.48854
G1 X80.687 Y113.630 E63.68230
G1 X80.687 Y114.362 E63.71381
G1 X83.138 Y116.813 E63.86300
G1 X82.406 Y116.813 E63.89451
G1 X80.687 Y115.094 E63.99914
G1 X80.687 Y115.826 E64.03065
G1 X81.674 Y116.813 E64.09071
G1 X80.942 Y116.813 E64.12222
G1 X80.687 Y116.558 E64.13773
G1 E62.13773 F2400.00000
G92 E0
G1 X80.687 Y106.309 F7800.000
G1 E2.00000 F2400.00000
G1 F1200
G1 X81.191 Y106.813 E2.03066
G1 X81.923 Y106.813 E2.06217
G1 X80.687 Y105.577 E2.13739
G1 X80.687 Y104.845 E2.16890
G1 X82.655 Y106.813 E2.28869
G1 X83.387 Y106.813 E2.32020
G1 X80.687 Y104.113 E2.48455
