; generated by Slic3r 1.3.0 on 2024-07-27 at 22:38:54

; external perimeters extrusion width = 0.44mm (2.38mm^3/s)
; perimeters extrusion width = 0.18mm (1.64mm^3/s)
; infill extrusion width = 0.50mm (7.31mm^3/s)
; solid infill extrusion width = 0.56mm (2.07mm^3/s)
; top infill extrusion width = 0.56mm (1.55mm^3/s)
; support material extrusion width = 0.44mm (4.76mm^3/s)

M107
M190 S67 ; set bed temperature and wait for it to be reached
M104 S225 ; set temperature
G28 ; home all axes
G1 Z5 F5000 ; lift nozzle

; Filament gcode

M109 S225 ; set temperature and wait for it to be reached
G21 ; set units to millimeters
G90 ; use absolute coordinates
M82 ; use absolute distances for extrusion
G92 E0
G1 Z0.400 F7800.000
G1 E-2.00000 F2400.00000
G92 E0
G1 X63.954 Y97.765 F7800.000
G1 E2.00000 F2400.00000
G1 F1800
G1 X66.289 Y96.333 E2.32531
G1 X70.000 Y95.572 E2.77528
G1 X150.000 Y95.572 E12.27649
G1 X152.710 Y95.970 E12.60180
G1 X155.191 Y97.130 E12.92711
G1 X157.235 Y98.954 E13.25242
G1 X158.667 Y101.289 E13.57773
G1 X159.428 Y105.000 E14.02770
G1 X159.428 Y115.000 E15.21535
G1 X159.030 Y117.710 E15.54066
G1 X157.870 Y120.191 E15.86597
G1 X156.046 Y122.235 E16.19128
G1 X153.711 Y123.667 E16.51658
G1 X150.000 Y124.428 E16.96655
G1 X70.000 Y124.428 E26.46777
G1 X67.290 Y124.030 E26.79308
G1 X64.809 Y122.870 E27.11838
G1 X62.765 Y121.046 E27.44369
G1 X61.333 Y118.711 E27.76900
G1 X60.572 Y115.000 E28.21897
G1 X60.572 Y105.000 E29.40662
G1 X60.970 Y102.290 E29.73193
G1 X62.130 Y99.809 E30.05724
G1 X63.914 Y97.810 E30.37542
G1 X64.651 Y98.121 F7800.000
G1 F1800
G1 X66.949 Y96.837 E30.68810
G1 X70.000 Y96.286 E31.05629
G1 X150.000 Y96.286 E40.55751
G1 X152.603 Y96.684 E40.87018
G1 X154.968 Y97.840 E41.18286
G1 X156.879 Y99.651 E41.49554
G1 X158.163 Y101.949 E41.80822
G1 X158.714 Y105.000 E42.17641
G1 X158.714 Y115.000 E43.36406
G1 X158.316 Y117.603 E43.67674
G1 X157.160 Y119.968 E43.98942
G1 X155.349 Y121.879 E44.30209
G1 X153.051 Y123.163 E44.61477
G1 X150.000 Y123.714 E44.98296
G1 X70.000 Y123.714 E54.48418
G1 X67.397 Y123.316 E54.79685
G1 X65.032 Y122.160 E55.10953
G1 X63.121 Y120.349 E55.42221
G1 X61.837 Y118.051 E55.73489
G1 X61.286 Y115.000 E56.10308
G1 X61.286 Y105.000 E57.29073
G1 X61.684 Y102.397 E57.60341
G1 X62.840 Y100.032 E57.91608
G1 X64.609 Y98.165 E58.22164
G1 E56.22164 F2400.00000
G92 E0
G1 X148.886 Y113.886 F7800.000
G1 E2.00000 F2400.00000
G1 F1800
G1 X71.114 Y113.886 E11.23657
G1 X71.114 Y106.114 E12.15957
G1 X148.886 Y106.114 E21.39614
G1 X148.886 Y113.826 E22.31202
G1 X149.600 Y114.600 F7800.000
G1 F1800
G1 X70.400 Y114.600 E31.71822
G1 X70.400 Y105.400 E32.81086
G1 X149.600 Y105.400 E42.21706
G1 X149.600 Y114.540 E43.30258
G1 X149.200 Y114.585 F7800.000
G1 E41.30258 F2400.00000
G92 E0
G1 X147.894 Y113.449 F7800.000
G1 E2.00000 F2400.00000
G1 F1800
G1 X148.449 Y112.894 E2.09433
G1 X148.449 Y111.873 E2.21686
G1 X146.873 Y113.449 E2.48449
G1 X145.852 Y113.449 E2.60703
G1 X148.449 Y110.852 E3.04795
G1 X148.449 Y109.831 E3.17049
G1 X144.831 Y113.449 E3.78471
G1 X143.811 Y113.449 E3.90725
G1 X148.449 Y108.811 E4.69476
G1 X148.449 Y107.790 E4.81730
G1 X142.790 Y113.449 E5.77811
G1 X141.769 Y113.449 E5.90065
G1 X148.449 Y106.769 E7.03476
G1 X148.449 Y106.551 E7.06098
G1 X147.647 Y106.551 E7.15731
G1 X140.748 Y113.449 E8.32848
G1 X139.727 Y113.449 E8.45102
G1 X146.626 Y106.551 E9.62220
G1 X145.605 Y106.551 E9.74474
G1 X138.706 Y113.449 E10.91592
G1 X137.686 Y113.449 E11.03846
G1 X144.585 Y106.551 E12.20964
G1 X143.564 Y106.551 E12.33218
G1 X136.665 Y113.449 E13.50335
G1 X135.644 Y113.449 E13.62589
G1 X142.543 Y106.551 E14.79707
G1 X141.522 Y106.551 E14.91961
G1 X134.623 Y113.449 E16.09079
G1 X133.602 Y113.449 E16.21333
G1 X140.501 Y106.551 E17.38451
G1 X139.480 Y106.551 E17.50705
G1 X132.582 Y113.449 E18.67822
G1 X131.561 Y113.449 E18.80076
G1 X138.460 Y106.551 E19.97194
G1 X137.439 Y106.551 E20.09448
G1 X130.540 Y113.449 E21.26566
G1 X129.519 Y113.449 E21.38820
G1 X136.418 Y106.551 E22.55938
G1 X135.397 Y106.551 E22.68192
G1 X128.498 Y113.449 E23.85310
G1 X127.477 Y113.449 E23.97564
G1 X134.376 Y106.551 E25.14681
G1 X133.355 Y106.551 E25.26935
G1 X126.457 Y113.449 E26.44053
G1 X125.436 Y113.449 E26.56307
G1 X132.335 Y106.551 E27.73425
G1 X131.314 Y106.551 E27.85679
G1 X124.415 Y113.449 E29.02797
G1 X123.394 Y113.449 E29.15051
G1 X130.293 Y106.551 E30.32168
G1 X129.272 Y106.551 E30.44422
G1 X122.373 Y113.449 E31.61540
G1 X121.352 Y113.449 E31.73794
G1 X128.251 Y106.551 E32.90912
G1 X127.231 Y106.551 E33.03166
G1 X120.332 Y113.449 E34.20284
G1 X119.311 Y113.449 E34.32538
G1 X126.210 Y106.551 E35.49655
G1 X125.189 Y106.551 E35.61909
G1 X118.290 Y113.449 E36.79027
G1 X117.269 Y113.449 E36.91281
G1 X124.168 Y106.551 E38.08399
G1 X123.147 Y106.551 E38.20653
G1 X116.248 Y113.449 E39.37771
G1 X115.228 Y113.449 E39.50025
G1 X122.126 Y106.551 E40.67143
G1 X121.106 Y106.551 E40.79397
G1 X114.207 Y113.449 E41.96514
G1 X113.186 Y113.449 E42.08768
G1 X120.085 Y106.551 E43.25886
G1 X119.064 Y106.551 E43.38140
G1 X112.165 Y113.449 E44.55258
G1 X111.144 Y113.449 E44.67512
G1 X118.043 Y106.551 E45.84630
G1 X117.022 Y106.551 E45.96884
G1 X110.123 Y113.449 E47.14001
G1 X109.103 Y113.449 E47.26255
G1 X116.002 Y106.551 E48.43373
G1 X114.981 Y106.551 E48.55627
G1 X108.082 Y113.449 E49.72745
G1 X107.061 Y113.449 E49.84999
G1 X113.960 Y106.551 E51.02117
G1 X112.939 Y106.551 E51.14371
G1 X106.040 Y113.449 E52.31488
G1 X105.019 Y113.449 E52.43742
G1 X111.918 Y106.551 E53.60860
G1 X110.897 Y106.551 E53.73114
G1 X103.999 Y113.449 E54.90232
G1 X102.978 Y113.449 E55.02486
G1 X109.877 Y106.551 E56.19604
G1 X108.856 Y106.551 E56.31858
G1 X101.957 Y113.449 E57.48976
G1 X100.936 Y113.449 E57.61230
G1 X107.835 Y106.551 E58.78347
G1 X106.814 Y106.551 E58.90601
G1 X99.915 Y113.449 E60.07719
G1 X98.894 Y113.449 E60.19973
G1 X105.793 Y106.551 E61.37091
G1 X104.773 Y106.551 E61.49345
G1 X97.874 Y113.449 E62.66463
G1 X96.853 Y113.449 E62.78717
G1 X103.752 Y106.551 E63.95834
G1 X102.731 Y106.551 E64.08088
G1 X95.832 Y113.449 E65.25206
G1 X94.811 Y113.449 E65.37460
G1 X101.710 Y106.551 E66.54578
G1 X100.689 Y106.551 E66.66832
G1 X93.790 Y113.449 E67.83950
G1 X92.770 Y113.449 E67.96204
G1 X99.668 Y106.551 E69.13321
G1 X98.648 Y106.551 E69.25575
G1 X91.749 Y113.449 E70.42693
G1 X90.728 Y113.449 E70.54947
G1 X97.627 Y106.551 E71.72065
G1 X96.606 Y106.551 E71.84319
G1 X89.707 Y113.449 E73.01437
G1 X88.686 Y113.449 E73.13691
G1 X95.585 Y106.551 E74.30808
G1 X94.564 Y106.551 E74.43062
G1 X87.665 Y113.449 E75.60180
G1 X86.645 Y113.449 E75.72434
G1 X93.543 Y106.551 E76.89552
G1 X92.523 Y106.551 E77.01806
G1 X85.624 Y113.449 E78.18924
G1 X84.603 Y113.449 E78.31178
G1 X91.502 Y106.551 E79.48295
G1 X90.481 Y106.551 E79.60549
G1 X83.582 Y113.449 E80.77667
G1 X82.561 Y113.449 E80.89921
G1 X89.460 Y106.551 E82.07039
G1 X88.439 Y106.551 E82.19293
G1 X81.540 Y113.449 E83.36411
G1 X80.520 Y113.449 E83.48665
G1 X87.419 Y106.551 E84.65782
G1 X86.398 Y106.551 E84.78036
G1 X79.499 Y113.449 E85.95154
G1 X78.478 Y113.449 E86.07408
G1 X85.377 Y106.551 E87.24526
G1 X84.356 Y106.551 E87.36780
G1 X77.457 Y113.449 E88.53898
G1 X76.436 Y113.449 E88.66152
G1 X83.335 Y106.551 E89.83269
G1 X82.314 Y106.551 E89.95523
G1 X75.416 Y113.449 E91.12641
G1 X74.395 Y113.449 E91.24895
G1 X81.294 Y106.551 E92.42013
G1 X80.273 Y106.551 E92.54267
G1 X73.374 Y113.449 E93.71384
G1 X72.353 Y113.449 E93.83638
G1 X79.252 Y106.551 E95.00756
G1 X78.231 Y106.551 E95.13010
G1 X71.551 Y113.231 E96.26422
G1 X71.551 Y112.210 E96.38676
G1 X77.210 Y106.551 E97.34759
G1 X76.190 Y106.551 E97.47013
G1 X71.551 Y111.190 E98.25766
G1 X71.551 Y110.169 E98.38020
G1 X75.169 Y106.551 E98.99442
G1 X74.148 Y106.551 E99.11696
G1 X71.551 Y109.148 E99.55790
G1 X71.551 Y108.127 E99.68044
G1 X73.127 Y106.551 E99.94807
G1 X72.106 Y106.551 E100.07061
G1 X71.551 Y107.106 E100.16491
G1 Z0.400 F7800.000
M104 S215 ; set temperature
M140 S60 ; set bed temperature
G1 Z0.600 F7800.000
G1 X149.513 Y114.513 F7800.000
G1 F3600
G1 X70.487 Y114.513 E101.06567
G1 X70.487 Y105.487 E101.16854
G1 X149.513 Y105.487 E102.06930
G1 X149.513 Y114.453 E102.17149
G1 X149.780 Y114.780 F7800.000
G1 F1800
G1 X70.220 Y114.780 E104.79835
G1 X70.220 Y105.220 E105.11399
G1 X149.780 Y105.220 E107.74085
G1 X149.780 Y114.720 E108.05452
G1 X149.380 Y114.764 F7800.000
G1 X149.313 Y105.941 F7800.000
G1 F1200
G1 X149.059 Y105.687 E108.07008
G1 X148.323 Y105.687 E108.10185
G1 X149.313 Y106.677 E108.16234
G1 X149.313 Y107.412 E108.19411
G1 X147.588 Y105.687 E108.29954
G1 X146.853 Y105.687 E108.33131
G1 X149.313 Y108.147 E108.48167
G1 X149.313 Y108.882 E108.51344
G1 X146.118 Y105.687 E108.70874
G1 X145.383 Y105.687 E108.74051
G1 X149.313 Y109.617 E108.98074
G1 X149.313 Y110.352 E109.01251
G1 X144.648 Y105.687 E109.29767
G1 X143.913 Y105.687 E109.32944
G1 X149.313 Y111.087 E109.65954
G1 X149.313 Y111.822 E109.69131
G1 X143.178 Y105.687 E110.06633
G1 X142.443 Y105.687 E110.09811
G1 X149.313 Y112.557 E110.51807
G1 X149.313 Y113.293 E110.54984
G1 X141.707 Y105.687 E111.01473
G1 X140.972 Y105.687 E111.04651
G1 X149.313 Y114.028 E111.55633
G1 X149.313 Y114.313 E111.56867
G1 X148.863 Y114.313 E111.58811
G1 X140.237 Y105.687 E112.11538
G1 X139.502 Y105.687 E112.14715
G1 X148.128 Y114.313 E112.67442
G1 X147.393 Y114.313 E112.70619
G1 X138.767 Y105.687 E113.23346
G1 X138.032 Y105.687 E113.26524
G1 X146.658 Y114.313 E113.79251
G1 X145.923 Y114.313 E113.82428
G1 X137.297 Y105.687 E114.35155
G1 X136.562 Y105.687 E114.38332
G1 X145.188 Y114.313 E114.91059
G1 X144.453 Y114.313 E114.94236
G1 X135.827 Y105.687 E115.46963
G1 X135.091 Y105.687 E115.50141
G1 X143.718 Y114.313 E116.02868
G1 X142.982 Y114.313 E116.06045
G1 X134.356 Y105.687 E116.58772
G1 X133.621 Y105.687 E116.61949
G1 X142.247 Y114.313 E117.14676
G1 X141.512 Y114.313 E117.17854
G1 X132.886 Y105.687 E117.70581
G1 X132.151 Y105.687 E117.73758
G1 X140.777 Y114.313 E118.26485
G1 X140.042 Y114.313 E118.29662
G1 X131.416 Y105.687 E118.82389
G1 X130.681 Y105.687 E118.85566
G1 X139.307 Y114.313 E119.38293
G1 X138.572 Y114.313 E119.41471
G1 X129.946 Y105.687 E119.94198
G1 X129.211 Y105.687 E119.97375
G1 X137.837 Y114.313 E120.50102
G1 X137.102 Y114.313 E120.53279
G1 X128.475 Y105.687 E121.06006
G1 X127.740 Y105.687 E121.09184
G1 X136.366 Y114.313 E121.61911
G1 X135.631 Y114.313 E121.65088
G1 X127.005 Y105.687 E122.17815
G1 X126.270 Y105.687 E122.20992
G1 X134.896 Y114.313 E122.73719
G1 X134.161 Y114.313 E122.76896
G1 X125.535 Y105.687 E123.29623
G1 X124.800 Y105.687 E123.32801
G1 X133.426 Y114.313 E123.85528
G1 X132.691 Y114.313 E123.88705
G1 X124.065 Y105.687 E124.41432
G1 X123.330 Y105.687 E124.44609
G1 X131.956 Y114.313 E124.97336
G1 X131.221 Y114.313 E125.00514
G1 X122.595 Y105.687 E125.53241
G1 X121.859 Y105.687 E125.56418
G1 X130.486 Y114.313 E126.09145
G1 X129.750 Y114.313 E126.12322
G1 X121.124 Y105.687 E126.65049
G1 X120.389 Y105.687 E126.68226
G1 X129.015 Y114.313 E127.20953
G1 X128.280 Y114.313 E127.24131
G1 X119.654 Y105.687 E127.76858
G1 X118.919 Y105.687 E127.80035
G1 X127.545 Y114.313 E128.32762
G1 X126.810 Y114.313 E128.35939
G1 X118.184 Y105.687 E128.88666
G1 X117.449 Y105.687 E128.91844
G1 X126.075 Y114.313 E129.44571
G1 X125.340 Y114.313 E129.47748
G1 X116.714 Y105.687 E130.00475
G1 X115.979 Y105.687 E130.03652
G1 X124.605 Y114.313 E130.56379
G1 X123.870 Y114.313 E130.59556
G1 X115.243 Y105.687 E131.12283
G1 X114.508 Y105.687 E131.15461
G1 X123.134 Y114.313 E131.68188
G1 X122.399 Y114.313 E131.71365
G1 X113.773 Y105.687 E132.24092
G1 X113.038 Y105.687 E132.27269
G1 X121.664 Y114.313 E132.79996
G1 X120.929 Y114.313 E132.83174
G1 X112.303 Y105.687 E133.35901
G1 X111.568 Y105.687 E133.39078
G1 X120.194 Y114.313 E133.91805
G1 X119.459 Y114.313 E133.94982
G1 X110.833 Y105.687 E134.47709
G1 X110.098 Y105.687 E134.50887
G1 X118.724 Y114.313 E135.03614
G1 X117.989 Y114.313 E135.06791
G1 X109.363 Y105.687 E135.59518
G1 X108.627 Y105.687 E135.62695
G1 X117.254 Y114.313 E136.15422
G1 X116.518 Y114.313 E136.18599
G1 X107.892 Y105.687 E136.71326
G1 X107.157 Y105.687 E136.74504
G1 X115.783 Y114.313 E137.27231
G1 X115.048 Y114.313 E137.30408
G1 X106.422 Y105.687 E137.83135
G1 X105.687 Y105.687 E137.86312
G1 X114.313 Y114.313 E138.39039
G1 X113.578 Y114.313 E138.42217
G1 X104.952 Y105.687 E138.94944
G1 X104.217 Y105.687 E138.98121
G1 X112.843 Y114.313 E139.50848
G1 X112.108 Y114.313 E139.54025
G1 X103.482 Y105.687 E140.06752
G1 X102.747 Y105.687 E140.09929
G1 X111.373 Y114.313 E140.62657
G1 X110.638 Y114.313 E140.65834
G1 X102.011 Y105.687 E141.18561
G1 X101.276 Y105.687 E141.21738
G1 X109.902 Y114.313 E141.74465
G1 X109.167 Y114.313 E141.77642
G1 X100.541 Y105.687 E142.30369
G1 X99.806 Y105.687 E142.33547
G1 X108.432 Y114.313 E142.86274
G1 X107.697 Y114.313 E142.89451
G1 X99.071 Y105.687 E143.42178
G1 X98.336 Y105.687 E143.45355
G1 X106.962 Y114.313 E143.98082
G1 X106.227 Y114.313 E144.01260
G1 X97.601 Y105.687 E144.53987
G1 X96.866 Y105.687 E144.57164
G1 X105.492 Y114.313 E145.09891
G1 X104.757 Y114.313 E145.13068
G1 X96.131 Y105.687 E145.65795
G1 X95.395 Y105.687 E145.68972
G1 X104.022 Y114.313 E146.21700
G1 X103.286 Y114.313 E146.24877
G1 X94.660 Y105.687 E146.77604
G1 X93.925 Y105.687 E146.80781
G1 X102.551 Y114.313 E147.33508
G1 X101.816 Y114.313 E147.36685
G1 X93.190 Y105.687 E147.89412
G1 X92.455 Y105.687 E147.92590
G1 X101.081 Y114.313 E148.45317
G1 X100.346 Y114.313 E148.48494
G1 X91.720 Y105.687 E149.01221
G1 X90.985 Y105.687 E149.04398
G1 X99.611 Y114.313 E149.57125
G1 X98.876 Y114.313 E149.60303
G1 X90.250 Y105.687 E150.13030
G1 X89.515 Y105.687 E150.16207
G1 X98.141 Y114.313 E150.68934
G1 X97.406 Y114.313 E150.72111
G1 X88.779 Y105.687 E151.24838
G1 X88.044 Y105.687 E151.28015
G1 X96.670 Y114.313 E151.80743
G1 X95.935 Y114.313 E151.83920
G1 X87.309 Y105.687 E152.36647
G1 X86.574 Y105.687 E152.39824
G1 X95.200 Y114.313 E152.92551
G1 X94.465 Y114.313 E152.95728
G1 X85.839 Y105.687 E153.48455
G1 X85.104 Y105.687 E153.51633
G1 X93.730 Y114.313 E154.04360
G1 X92.995 Y114.313 E154.07537
G1 X84.369 Y105.687 E154.60264
G1 X83.634 Y105.687 E154.63441
G1 X92.260 Y114.313 E155.16168
G1 X91.525 Y114.313 E155.19346
G1 X82.899 Y105.687 E155.72073
G1 X82.163 Y105.687 E155.75250
G1 X90.790 Y114.313 E156.27977
G1 X90.054 Y114.313 E156.31154
G1 X81.428 Y105.687 E156.83881
G1 X80.693 Y105.687 E156.87058
G1 X89.319 Y114.313 E157.39785
G1 X88.584 Y114.313 E157.42963
G1 X79.958 Y105.687 E157.95690
G1 X79.223 Y105.687 E157.98867
G1 X87.849 Y114.313 E158.51594
G1 X87.114 Y114.313 E158.54771
G1 X78.488 Y105.687 E159.07498
G1 X77.753 Y105.687 E159.10676
G1 X86.379 Y114.313 E159.63403
G1 X85.644 Y114.313 E159.66580
G1 X77.018 Y105.687 E160.19307
G1 X76.283 Y105.687 E160.22484
G1 X84.909 Y114.313 E160.75211
G1 X84.174 Y114.313 E160.78389
G1 X75.547 Y105.687 E161.31116
G1 X74.812 Y105.687 E161.34293
G1 X83.438 Y114.313 E161.87020
G1 X82.703 Y114.313 E161.90197
G1 X74.077 Y105.687 E162.42924
G1 X73.342 Y105.687 E162.46101
G1 X81.968 Y114.313 E162.98829
G1 X81.233 Y114.313 E163.02006
G1 X72.607 Y105.687 E163.54733
G1 X71.872 Y105.687 E163.57910
G1 X80.498 Y114.313 E164.10637
G1 X79.763 Y114.313 E164.13814
G1 X71.137 Y105.687 E164.66541
G1 X70.687 Y105.687 E164.68486
G1 X70.687 Y105.972 E164.69719
G1 X79.028 Y114.313 E165.20702
G1 X78.293 Y114.313 E165.23879
G1 X70.687 Y106.707 E165.70369
G1 X70.687 Y107.442 E165.73546
G1 X77.558 Y114.313 E166.15543
G1 X76.822 Y114.313 E166.18720
G1 X70.687 Y108.178 E166.56223
G1 X70.687 Y108.913 E166.59400
G1 X76.087 Y114.313 E166.92410
G1 X75.352 Y114.313 E166.95587
G1 X70.687 Y109.648 E167.24104
G1 X70.687 Y110.383 E167.27281
G1 X74.617 Y114.313 E167.51304
G1 X73.882 Y114.313 E167.54482
G1 X70.687 Y111.118 E167.74011
G1 X70.687 Y111.853 E167.77189
G1 X73.147 Y114.313 E167.92225
G1 X72.412 Y114.313 E167.95402
G1 X70.687 Y112.588 E168.05945
G1 X70.687 Y113.323 E168.09123
G1 X71.677 Y114.313 E168.15172
G1 X70.942 Y114.313 E168.18350
G1 X70.687 Y114.058 E168.19906
G1 Z0.800 F7800.000
G1 X149.513 Y114.513 F7800.000
G1 F3600
G1 X70.487 Y114.513 E169.09981
G1 X70.487 Y105.487 E169.20269
